; generated by PrusaSlicer 2.6.1+win64 on 2023-10-21 at 10:05:08 UTC


;
;
; 

; external perimeters extrusion width = 0.45mm
; perimeters extrusion width = 0.45mm
; infill extrusion width = 0.45mm
; solid infill extrusion width = 0.45mm
; top infill extrusion width = 0.40mm
; first layer extrusion width = 0.42mm

M73 P0 R13
M73 Q0 S13
M201 X1000 Y1000 Z200 E5000 ; sets maximum accelerations, mm/sec^2
M203 X200 Y200 Z12 E120 ; sets maximum feedrates, mm / sec
M204 S1250 T1250 ; sets acceleration (S) and retract acceleration (R), mm/sec^2
M205 X8.00 Y8.00 Z0.40 E4.50 ; sets the jerk limits, mm/sec
M205 S0 T0 ; sets the minimum extruding and travel feed rate, mm/sec
;TYPE:Custom
M862.3 P "MK3S" ; printer model check
M862.1 P0.4 ; nozzle diameter check
M115 U3.13.0 ; tell printer latest fw version
G90 ; use absolute coordinates
M83 ; extruder relative mode
M104 S255 ; set extruder temp
M140 S100 ; set bed temp
M190 S100 ; wait for bed temp
M109 S255 ; wait for extruder temp
G28 W ; home all without mesh bed level
G80 ; mesh bed leveling

G1 Z0.2 F720
G1 Y-3 F1000 ; go outside print area
G92 E0
G1 X60 E9 F1000 ; intro line
G1 X100 E12.5 F1000 ; intro line

G92 E0
M221 S95

; Don't change E values below. Excessive value can damage the printer.
M907 E430 ; set extruder motor current
G21 ; set units to millimeters
G90 ; use absolute coordinates
M83 ; use relative distances for extrusion
M900 K0.04 ; Filament gcode LA 1.5
M900 K20 ; Filament gcode LA 1.0
M107
;LAYER_CHANGE
;Z:0.2
;HEIGHT:0.2
;BEFORE_LAYER_CHANGE
G92 E0.0
;0.2


G1 E-.8 F2100
G1 Z.4 F720
;AFTER_LAYER_CHANGE
;0.2
G1 X100.183 Y92.073 F10800
G1 Z.2 F720
G1 E.8 F2100
M204 S800
;TYPE:Skirt/Brim
;WIDTH:0.42
G1 F1200
G1 X101.241 Y91.046 E.04623
G1 X120.428 Y78.222 E.7236
G1 X121.222 Y77.881 E.02709
M73 P1 R13
M73 Q1 S13
G1 X124.474 Y77.142 E.10456
G1 X125.527 Y77.142 E.03302
G1 X128.778 Y77.88 E.10453
G1 X129.572 Y78.222 E.02711
G1 X148.759 Y91.045 E.72358
G1 X149.817 Y92.073 E.04625
G1 X150.47 Y93.576 E.05138
G1 X152.108 Y122.032 E.89369
G1 X151.358 Y130.423 E.26414
G1 X150.678 Y131.878 E.05036
G1 X150.344 Y132.214 E.01485
G1 X148.657 Y132.917 E.0573
G1 X101.343 Y132.917 E1.4835
G1 X99.656 Y132.214 E.0573
G1 X99.322 Y131.878 E.01485
G1 X98.642 Y130.423 E.05036
G1 X97.892 Y122.033 E.26411
G1 X99.53 Y93.577 E.89369
G1 X100.159 Y92.128 E.04953
M204 S1000
; printing object Fox.stl id:0 copy 0
;WIPE_START
M73 P2 R13
M73 Q2 S13
G1 F8640
G1 X101.241 Y91.046 E-.35332
G1 X102.849 Y89.971 E-.44668
;WIPE_END
G1 Z.6 F720
G1 X133.035 Y99.203 F10800
G1 Z.2 F720
G1 E.8 F2100
M204 S800
;TYPE:Perimeter
;WIDTH:0.548342
G1 F1200
G1 X133.01 Y99.3 E.00421
;WIDTH:0.532297
G1 X133.043 Y99.643 E.01402
;WIDTH:0.486268
G1 X133.197 Y100.087 E.01732
G1 X132.946 Y99.975 E.01013
G1 X132.378 Y99.821 E.0217
G1 X132.67 Y99.562 E.01439
;WIDTH:0.517305
G1 X132.852 Y99.382 E.0101
;WIDTH:0.548342
G1 X132.992 Y99.245 E.00823
M204 S1000
G1 X133.982 Y99.273 F10800
M204 S800
;TYPE:External perimeter
;WIDTH:0.509232
G1 F1200
G1 X134.01 Y99.297 E.00143
;WIDTH:0.505748
G1 X135.252 Y100.488 E.06622
;WIDTH:0.481704
G1 X135.306 Y100.593 E.00431
M204 S1000
G1 X135.802 Y100.677 F10800
M204 S800
;WIDTH:0.498794
G1 F1200
G1 X135.862 Y100.601 E.00367
;WIDTH:0.514983
G1 X136.749 Y99.741 E.04849
;WIDTH:0.546468
G1 X137.635 Y98.882 E.05167
;WIDTH:0.550204
G1 X137.661 Y98.855 E.00158
M204 S1000
G1 X137.373 Y98.418 F10800
M204 S800
;WIDTH:0.614082
G1 F1200
G1 X133.72 Y98.41 E.17349
;WIDTH:0.61185
G1 X133.671 Y98.412 E.00232
M204 S1000
;WIPE_START
G1 F8640
G1 X133.72 Y98.41 E-.01132
G1 X137.136 Y98.417 E-.78868
;WIPE_END
G1 Z.6 F720
G1 X131.384 Y99.8 F10800
G1 Z.2 F720
G1 E.8 F2100
M204 S800
;WIDTH:0.449892
G1 F1200
G1 X131.358 Y99.766 E.00145
;WIDTH:0.483477
G1 X130.8 Y98.952 E.03615
;WIDTH:0.519988
G1 X130.243 Y98.137 E.03916
M204 S1000
G1 X129.874 Y98.174 F10800
M204 S800
;WIDTH:0.486828
G1 F1200
G1 X129.827 Y98.32 E.00566
;WIDTH:0.526078
G1 X129.78 Y98.467 E.0062
;WIDTH:0.565328
G1 X129.733 Y98.614 E.0067
G1 X129.648 Y98.517 E.0056
;WIDTH:0.523928
G1 X129.563 Y98.421 E.00513
;WIDTH:0.482527
G1 X129.466 Y98.378 E.00388
;WIDTH:0.527402
G1 X129.192 Y98.418 E.01116
G1 X129.323 Y98.244 E.00877
;WIDTH:0.502146
G1 X129.454 Y98.07 E.00832
;WIDTH:0.497914
G1 X129.799 Y97.68 E.0197
G1 X129.804 Y97.625 E.00209
;WIDTH:0.451766
G1 X129.809 Y97.57 E.00188
;WIDTH:0.405617
G1 X129.814 Y97.514 E.0017
;WIDTH:0.394606
G1 X129.83 Y97.49 E.00084
;WIDTH:0.429743
G1 X129.845 Y97.467 E.00088
;WIDTH:0.46488
G1 X129.861 Y97.443 E.00101
G1 X129.828 Y97.184 E.00916
;WIDTH:0.488084
G1 X129.899 Y97.226 E.00305
;WIDTH:0.521323
G1 X129.97 Y97.268 E.00328
;WIDTH:0.557184
G1 X130.145 Y97.194 E.00812
G1 X130.073 Y97.396 E.00917
;WIDTH:0.514577
G1 X130.087 Y97.425 E.00126
;WIDTH:0.475549
G1 X130.101 Y97.453 E.00113
;WIDTH:0.43652
G1 X130.115 Y97.482 E.00105
;WIDTH:0.397492
G1 X130.129 Y97.51 E.00092
;WIDTH:0.404947
G1 X130.129 Y97.561 E.00154
;WIDTH:0.451431
G1 X130.129 Y97.612 E.00173
;WIDTH:0.497914
G1 X130.129 Y97.662 E.00189
G1 X130.423 Y97.747 E.01158
;WIDTH:0.481028
G1 X130.259 Y97.799 E.00627
;WIDTH:0.496973
G1 X130.192 Y97.893 E.00436
;WIDTH:0.519988
G1 X130.243 Y98.137 E.00989
G1 X130.012 Y98.052 E.00976
;WIDTH:0.496973
G1 X129.919 Y98.134 E.00468
M204 S1000
;WIPE_START
G1 F8640
G1 X129.827 Y98.32 E-.04791
G1 X129.78 Y98.467 E-.03564
G1 X129.733 Y98.614 E-.03564
G1 X129.648 Y98.517 E-.02978
G1 X129.563 Y98.421 E-.02961
G1 X129.466 Y98.378 E-.0245
G1 X129.192 Y98.418 E-.06394
G1 X129.323 Y98.244 E-.05029
G1 X129.454 Y98.07 E-.05029
G1 X129.799 Y97.68 E-.12023
G1 X129.804 Y97.625 E-.01275
G1 X129.809 Y97.57 E-.01275
G1 X129.814 Y97.514 E-.01298
G1 X129.83 Y97.49 E-.00666
G1 X129.845 Y97.467 E-.00634
G1 X129.861 Y97.443 E-.00666
G1 X129.828 Y97.184 E-.06029
G1 X129.899 Y97.226 E-.01905
G1 X129.97 Y97.268 E-.01905
G1 X130.145 Y97.194 E-.04387
G1 X130.073 Y97.396 E-.04952
G1 X130.087 Y97.425 E-.00744
G1 X130.101 Y97.453 E-.00723
G1 X130.115 Y97.482 E-.00744
G1 X130.129 Y97.51 E-.00723
G1 X130.129 Y97.561 E-.01178
G1 X130.129 Y97.612 E-.01178
G1 X130.129 Y97.652 E-.00935
;WIPE_END
G1 Z.6 F720
G1 X131.933 Y93.573 F10800
G1 Z.2 F720
G1 E.8 F2100
M204 S800
;WIDTH:0.485108
G1 F1200
G1 X131.058 Y95.357 E.07306
;WIDTH:0.534884
G1 X130.183 Y97.14 E.08125
;WIDTH:0.557184
G1 X130.145 Y97.194 E.00282
G1 X130.039 Y97.191 E.00453
;WIDTH:0.523071
G1 X129.933 Y97.187 E.00424
;WIDTH:0.488958
G1 X129.828 Y97.184 E.0039
;WIDTH:0.45738
G1 X129.763 Y97.081 E.0042
;WIDTH:0.460952
G1 X128.442 Y92.004 E.18235
M204 S1000
G1 X128.005 Y91.172 F10800
M204 S800
;WIDTH:0.477604
G1 F1200
G1 X127.965 Y91.182 E.00149
;WIDTH:0.51765
G1 X125.19 Y91.805 E.11227
;WIDTH:0.565161
G1 X125.095 Y91.847 E.00451
;WIDTH:0.612672
G1 X125 Y91.889 E.00492
G1 X125 Y91.962 E.00346
;WIDTH:0.571129
G1 X125 Y92.035 E.00321
;WIDTH:0.529586
G1 X125 Y95.629 E.14544
;WIDTH:0.480698
G1 X125 Y99.223 E.13083
;WIDTH:0.431809
G1 X125 Y102.817 E.11622
;WIDTH:0.427168
G1 X125 Y102.857 E.00128
;WIDTH:0.471415
G1 X125 Y102.897 E.00143
;WIDTH:0.515663
G1 X125 Y102.937 E.00157
;WIDTH:0.55991
G1 X125 Y102.977 E.00172
;WIDTH:0.604158
G1 X125 Y103.017 E.00187
;WIDTH:0.648405
G1 X125 Y103.057 E.00201
;WIDTH:0.692653
G1 X125 Y103.097 E.00216
;WIDTH:0.7369
G1 X125.001 Y103.137 E.00231
G1 X125.062 Y103.103 E.00403
;WIDTH:0.688194
G1 X125.124 Y103.068 E.00382
;WIDTH:0.639488
G1 X125.186 Y103.033 E.00353
;WIDTH:0.590781
G1 X125.248 Y102.999 E.00322
;WIDTH:0.542075
G1 X125.31 Y102.964 E.00296
;WIDTH:0.527402
G1 X129.192 Y98.418 E.24082
M204 S1000
;WIPE_START
G1 F8640
G1 X126.942 Y101.053 E-.8
;WIPE_END
G1 Z.6 F720
G1 X133.931 Y101.137 F10800
G1 Z.2 F720
G1 E.8 F2100
M204 S800
;WIDTH:0.547136
G1 F1200
G1 X131.539 Y110.717 E.41398
;WIDTH:0.51772
G1 X131.527 Y110.757 E.00165
M204 S1000
M73 P2 R12
G1 X130.923 Y110.671 F10800
M204 S800
;WIDTH:0.56649
G1 F1200
G1 X130.924 Y110.626 E.00196
;WIDTH:0.562552
G1 X131.531 Y100.331 E.44559
;WIDTH:0.519934
G1 X131.531 Y100.33 E.00004
M204 S1000
;WIPE_START
G1 F8640
G1 X131.531 Y100.331 E-.00023
G1 X131.327 Y103.789 E-.79977
;WIPE_END
G1 Z.6 F720
G1 X133.523 Y99.29 F10800
G1 Z.2 F720
G1 E.8 F2100
M204 S800
;WIDTH:0.419999
G1 F1200
G1 X133.449 Y99.36 E.00319
G1 X133.433 Y99.518 E.00498
G1 X133.603 Y100.001 E.01605
G1 X133.939 Y100.678 E.0237
;WIDTH:0.455839
G1 X133.945 Y100.713 E.00122
;WIDTH:0.491679
G1 X133.95 Y100.748 E.00132
;WIDTH:0.527518
G1 X133.956 Y100.783 E.00143
G1 X134.046 Y100.829 E.00407
G1 X134.084 Y100.811 E.00169
;WIDTH:0.485605
G1 X134.122 Y100.793 E.00155
;WIDTH:0.443691
G1 X134.16 Y100.776 E.00139
;WIDTH:0.401778
G1 X134.197 Y100.758 E.00123
;WIDTH:0.40221
G1 X134.475 Y100.761 E.00831
;WIDTH:0.444556
G1 X134.753 Y100.763 E.00928
;WIDTH:0.486902
G1 X135.031 Y100.766 E.01026
;WIDTH:0.529247
G1 X135.308 Y100.769 E.0112
G1 X135.307 Y100.681 E.00356
;WIDTH:0.499719
G1 X135.306 Y100.593 E.00334
G1 X135.39 Y100.663 E.00415
;WIDTH:0.529247
G1 X135.475 Y100.734 E.00448
G1 X135.499 Y100.719 E.00114
;WIDTH:0.48001
G1 X135.523 Y100.705 E.00101
;WIDTH:0.430773
G1 X135.547 Y100.69 E.00091
;WIDTH:0.421085
G1 X135.576 Y100.713 E.00116
;WIDTH:0.460635
G1 X135.604 Y100.735 E.00124
;WIDTH:0.500185
G1 X135.633 Y100.757 E.00138
;WIDTH:0.539735
G1 X135.662 Y100.78 E.00153
G1 X135.776 Y100.697 E.00583
G1 X135.781 Y100.847 E.0062
G1 X135.835 Y100.933 E.00419
;WIDTH:0.588471
G1 X135.827 Y100.959 E.00123
;WIDTH:0.637207
G1 X135.82 Y100.984 E.00128
;WIDTH:0.685943
G1 X135.812 Y101.01 E.00145
;WIDTH:0.734678
G1 X135.804 Y101.036 E.00156
G1 X135.777 Y101.038 E.00156
;WIDTH:0.685943
G1 X135.751 Y101.04 E.00139
;WIDTH:0.637207
G1 X135.724 Y101.042 E.00134
;WIDTH:0.588471
G1 X135.697 Y101.045 E.00123
;WIDTH:0.539735
G1 X135.624 Y100.974 E.00421
G1 X135.595 Y100.985 E.00128
;WIDTH:0.498347
G1 X135.566 Y100.996 E.00117
;WIDTH:0.456958
G1 X135.537 Y101.007 E.00107
;WIDTH:0.415569
G1 X135.508 Y101.019 E.00097
;WIDTH:0.412947
G1 X135.484 Y101 E.00094
;WIDTH:0.451714
G1 X135.46 Y100.981 E.00104
;WIDTH:0.490481
G1 X135.436 Y100.962 E.00114
;WIDTH:0.529247
G1 X135.412 Y100.943 E.00124
G1 X135.379 Y100.966 E.00163
;WIDTH:0.479975
G1 X135.346 Y100.988 E.00144
;WIDTH:0.430702
G1 X135.313 Y101.011 E.0013
;WIDTH:0.38143
G1 X135.28 Y101.034 E.00113
;WIDTH:0.332157
G1 X135.09 Y101.06 E.00461
;WIDTH:0.359864
G1 X134.195 Y101.074 E.02359
;WIDTH:0.401778
G1 X134.162 Y101.059 E.00108
;WIDTH:0.443691
G1 X134.129 Y101.044 E.00121
;WIDTH:0.485605
G1 X134.095 Y101.029 E.00137
;WIDTH:0.527518
G1 X134.062 Y101.014 E.00146
;WIDTH:0.54619
G1 X133.931 Y101.137 E.00752
G1 X133.927 Y100.953 E.0077
;WIDTH:0.527518
G1 X133.877 Y100.865 E.00408
G1 X133.839 Y100.859 E.00155
;WIDTH:0.491679
G1 X133.801 Y100.853 E.00144
;WIDTH:0.455839
G1 X133.763 Y100.847 E.00132
;WIDTH:0.419999
G1 X133.32 Y100.602 E.01587
G1 X132.835 Y100.37 E.01686
G1 X132.324 Y100.228 E.01663
;WIDTH:0.446838
G1 X131.676 Y100.166 E.02186
;WIDTH:0.483386
G1 X131.604 Y100.248 E.004
;WIDTH:0.519934
G1 X131.531 Y100.33 E.00435
G1 X131.521 Y100.194 E.00541
;WIDTH:0.483386
G1 X131.511 Y100.058 E.00499
;WIDTH:0.449892
G1 X131.384 Y99.8 E.00973
G1 X131.515 Y99.852 E.00477
;WIDTH:0.437671
G1 X131.636 Y99.808 E.00423
;WIDTH:0.419999
G1 X132.336 Y99.312 E.0269
G1 X132.649 Y98.981 E.01428
G1 X132.776 Y98.775 E.00759
G1 X132.932 Y98.45 E.0113
;WIDTH:0.418767
G1 X132.868 Y98.323 E.00444
;WIDTH:0.408525
G1 X132.787 Y98.282 E.00276
;WIDTH:0.418767
G1 X133.019 Y98.287 E.00725
;WIDTH:0.43683
G1 X133.115 Y98.154 E.00537
G1 X133.212 Y98.287 E.00539
;WIDTH:0.467038
G1 X133.327 Y98.318 E.0042
;WIDTH:0.515309
G1 X133.441 Y98.349 E.00464
;WIDTH:0.56358
G1 X133.556 Y98.381 E.00517
;WIDTH:0.61185
G1 X133.671 Y98.412 E.00563
G1 X133.636 Y98.475 E.00341
;WIDTH:0.563888
G1 X133.602 Y98.539 E.00314
;WIDTH:0.515925
G1 X133.567 Y98.603 E.00287
;WIDTH:0.467962
G1 X133.533 Y98.666 E.00253
;WIDTH:0.419999
G1 X133.588 Y98.827 E.00533
;WIDTH:0.464616
G1 X133.785 Y99.05 E.01043
;WIDTH:0.509232
G1 X133.982 Y99.273 E.01154
G1 X133.86 Y99.248 E.00483
;WIDTH:0.477787
G1 X133.691 Y99.269 E.00616
;WIDTH:0.448893
G1 X133.582 Y99.283 E.00371
M204 S1000
G1 X133.035 Y99.203 F10800
M204 S800
;TYPE:Perimeter
;WIDTH:0.56385
G1 F1200
M73 Q3 S13
G1 X133.163 Y99.003 E.01029
M204 S1000
;WIPE_START
G1 F8640
G1 X133.035 Y99.203 E-.05483
;WIPE_END
G1 E-.74517 F2100
G1 Z.6 F720
G1 X137.651 Y97.202 F10800
G1 Z.2 F720
M73 P3 R12
G1 E.8 F2100
M204 S800
;TYPE:External perimeter
;WIDTH:0.47674
G1 F1200
G1 X134.166 Y86.673 E.40007
;WIDTH:0.48456
G1 X134.167 Y86.6 E.00268
;WIDTH:0.53201
G1 X134.168 Y86.528 E.00293
;WIDTH:0.57946
G1 X134.169 Y86.455 E.00326
;WIDTH:0.62691
G1 X134.17 Y86.383 E.0035
M204 S1000
;WIPE_START
G1 F8640
G1 X134.169 Y86.455 E-.01663
G1 X134.168 Y86.528 E-.01686
G1 X134.167 Y86.6 E-.01663
G1 X134.166 Y86.673 E-.01686
G1 X135.164 Y89.687 E-.73302
;WIPE_END
G1 Z.6 F720
G1 X130.685 Y82.942 F10800
G1 Z.2 F720
G1 E.8 F2100
M204 S800
;WIDTH:0.505482
G1 F1200
G1 X130.714 Y82.969 E.00152
;WIDTH:0.502006
G1 X134.007 Y86.191 E.17587
;WIDTH:0.533416
G1 X134.061 Y86.255 E.00342
;WIDTH:0.580163
G1 X134.116 Y86.319 E.00377
;WIDTH:0.62691
G1 X134.17 Y86.383 E.00407
G1 X134.24 Y86.395 E.00345
;WIDTH:0.583028
G1 X134.309 Y86.406 E.00314
;WIDTH:0.539145
G1 X134.379 Y86.418 E.00293
;WIDTH:0.495263
G1 X134.448 Y86.43 E.00263
;WIDTH:0.469096
G1 X147.294 Y93.211 E.51475
G1 X147.425 Y93.316 E.00595
;WIDTH:0.426008
G1 X147.555 Y93.421 E.00532
;WIDTH:0.431521
G1 X147.573 Y93.476 E.00187
;WIDTH:0.480121
G1 X147.591 Y93.53 E.00207
;WIDTH:0.528722
G1 X147.609 Y93.584 E.0023
;WIDTH:0.577322
G1 X147.627 Y93.638 E.00253
;WIDTH:0.625922
G1 X147.645 Y93.693 E.00281
G1 X147.768 Y93.806 E.0081
;WIDTH:0.605062
G1 X147.767 Y93.909 E.00481
;WIDTH:0.562616
G1 X147.767 Y94.012 E.00445
;WIDTH:0.544856
G1 X145.5 Y104.582 E.45118
;WIDTH:0.548654
G1 X145.489 Y104.624 E.00183
M204 S1000
M73 Q3 S12
G1 X145.453 Y105.18 F10800
M204 S800
;WIDTH:0.549426
G1 F1200
G1 X145.484 Y105.232 E.00255
;WIDTH:0.521443
G1 X145.514 Y105.285 E.00242
;WIDTH:0.526757
G1 X146.591 Y108.886 E.15121
;WIDTH:0.560054
G1 X147.668 Y112.487 E.16162
G1 X147.736 Y112.794 E.01352
;WIDTH:0.577236
G1 X147.731 Y112.877 E.00369
;WIDTH:0.617752
G1 X147.726 Y112.96 E.00397
M204 S1000
;WIPE_START
G1 F8640
G1 X147.731 Y112.877 E-.0192
G1 X147.736 Y112.794 E-.0192
G1 X147.668 Y112.487 E-.07261
G1 X146.813 Y109.628 E-.68899
;WIPE_END
G1 Z.6 F720
G1 X143.707 Y104.2 F10800
G1 Z.2 F720
G1 E.8 F2100
M204 S800
;WIDTH:0.498036
G1 F1200
G1 X143.941 Y104.096 E.00969
;WIDTH:0.486611
G1 X143.98 Y104.034 E.0027
;WIDTH:0.512712
G1 X143.975 Y103.703 E.01293
G1 X144.314 Y103.987 E.01728
;WIDTH:0.520119
G1 X144.695 Y104.352 E.02094
;WIDTH:0.554562
G1 X145.077 Y104.716 E.02245
G1 X144.581 Y104.537 E.02243
;WIDTH:0.520119
G1 X144.084 Y104.358 E.02096
;WIDTH:0.498036
G1 X143.762 Y104.223 E.01321
M204 S1000
G1 X143.975 Y103.703 F10800
M204 S800
;WIDTH:0.512712
G1 F1200
G1 X141.136 Y101.153 E.14907
;WIDTH:0.480391
G1 X138.297 Y98.603 E.13881
;WIDTH:0.46858
G1 X138.306 Y98.281 E.0114
G1 X138.339 Y98.263 E.00133
;WIDTH:0.496484
G1 X147.433 Y93.759 E.38273
;WIDTH:0.53963
G1 X147.504 Y93.737 E.00307
;WIDTH:0.582776
G1 X147.575 Y93.715 E.00334
;WIDTH:0.625922
G1 X147.645 Y93.693 E.00356
M204 S1000
;WIPE_START
G1 F8640
G1 X147.575 Y93.715 E-.01694
G1 X147.504 Y93.737 E-.01716
G1 X147.433 Y93.759 E-.01716
G1 X144.527 Y95.198 E-.74874
;WIPE_END
G1 Z.6 F720
G1 X137.211 Y97.532 F10800
G1 Z.2 F720
G1 E.8 F2100
M204 S800
;WIDTH:0.537218
G1 F1200
G1 X137.337 Y97.52 E.0052
;WIDTH:0.501506
G1 X137.463 Y97.508 E.00483
;WIDTH:0.465793
G1 X137.556 Y97.448 E.00389
;WIDTH:0.47674
G1 X137.651 Y97.202 E.00951
G1 X137.794 Y97.559 E.01387
;WIDTH:0.431597
G1 X137.936 Y97.915 E.01239
;WIDTH:0.424578
G1 X137.96 Y98.029 E.0037
;WIDTH:0.462701
G1 X137.984 Y98.143 E.00407
;WIDTH:0.500824
G1 X138.009 Y98.256 E.00441
G1 X138.132 Y98.323 E.00533
;WIDTH:0.488007
G1 X138.277 Y98.3 E.00543
G1 X138.211 Y98.431 E.00543
G1 X138.285 Y98.592 E.00656
G1 X138.122 Y98.521 E.00658
;WIDTH:0.500824
G1 X137.993 Y98.575 E.00532
;WIDTH:0.550204
G1 X137.661 Y98.855 E.01832
G1 X137.649 Y98.71 E.00614
;WIDTH:0.524621
