; generated by PrusaSlicer 2.6.1+win64 on 2023-10-21 at 08:25:35 UTC


;
;
; 

; external perimeters extrusion width = 0.45mm
; perimeters extrusion width = 0.45mm
; infill extrusion width = 0.45mm
; solid infill extrusion width = 0.45mm
; top infill extrusion width = 0.40mm
; first layer extrusion width = 0.42mm

M73 P0 R7
M73 Q0 S7
M201 X1000 Y1000 Z200 E5000 ; sets maximum accelerations, mm/sec^2
M203 X200 Y200 Z12 E120 ; sets maximum feedrates, mm / sec
M204 S1250 T1250 ; sets acceleration (S) and retract acceleration (R), mm/sec^2
M205 X8.00 Y8.00 Z0.40 E4.50 ; sets the jerk limits, mm/sec
M205 S0 T0 ; sets the minimum extruding and travel feed rate, mm/sec
;TYPE:Custom
M862.3 P "MK3S" ; printer model check
M862.1 P0.4 ; nozzle diameter check
M115 U3.13.0 ; tell printer latest fw version
G90 ; use absolute coordinates
M83 ; extruder relative mode
M104 S215 ; set extruder temp
M140 S60 ; set bed temp
M190 S60 ; wait for bed temp
M109 S215 ; wait for extruder temp
G28 W ; home all without mesh bed level
G80 ; mesh bed leveling

G1 Z0.2 F720
G1 Y-3 F1000 ; go outside print area
G92 E0
G1 X60 E9 F1000 ; intro line
G1 X100 E12.5 F1000 ; intro line

G92 E0
M221 S95

; Don't change E values below. Excessive value can damage the printer.
M907 E430 ; set extruder motor current
G21 ; set units to millimeters
G90 ; use absolute coordinates
M83 ; use relative distances for extrusion
M900 K0.05 ; Filament gcode LA 1.5
M900 K30 ; Filament gcode LA 1.0
M107
;LAYER_CHANGE
;Z:0.2
;HEIGHT:0.2
;BEFORE_LAYER_CHANGE
G92 E0.0
;0.2


G1 E-.8 F2100
M73 P1 R7
M73 Q1 S7
G1 Z.4 F720
;AFTER_LAYER_CHANGE
;0.2
G1 X115.913 Y94.721 F10800
G1 Z.2 F720
G1 E.8 F2100
M204 S800
;TYPE:Skirt/Brim
;WIDTH:0.42
G1 F1200
G1 X116.981 Y93.574 E.04914
G1 X117.721 Y92.913 E.03111
G1 X118.876 Y92.054 E.04513
G1 X120.256 Y91.246 E.05014
G1 X121.126 Y90.84 E.0301
G1 X122.479 Y90.348 E.04514
G1 X124.191 Y89.942 E.05517
G1 X126.42 Y89.747 E.07016
G1 X134.5 Y89.746 E.25334
G1 X135.917 Y90.139 E.04611
G1 X136.931 Y91.205 E.04613
G1 X137.254 Y92.5 E.04185
G1 X137.254 Y117.5 E.78386
G1 X136.861 Y118.917 E.04611
M73 P2 R7
M73 Q2 S7
G1 X135.795 Y119.931 E.04613
G1 X134.5 Y120.254 E.04185
G1 X126.42 Y120.253 E.25334
G1 X124.278 Y120.071 E.0674
G1 X122.632 Y119.698 E.05292
G1 X121.126 Y119.16 E.05014
G1 X119.693 Y118.45 E.05014
G1 X118.876 Y117.946 E.0301
G1 X117.598 Y116.984 E.05015
G1 X116.551 Y115.996 E.04514
G1 X115.516 Y114.777 E.05014
G1 X114.966 Y113.99 E.0301
G1 X114.174 Y112.601 E.05013
G1 X113.549 Y111.129 E.05014
G1 X113.099 Y109.594 E.05015
G1 X112.849 Y108.176 E.04515
G1 X112.766 Y107.22 E.03009
G1 X112.746 Y103.5 E.11664
G1 X112.831 Y101.983 E.04764
G1 X113.093 Y100.438 E.04913
G1 X113.348 Y99.479 E.03111
G1 X113.84 Y98.126 E.04514
G1 X114.55 Y96.693 E.05014
G1 X115.054 Y95.876 E.0301
G1 X115.877 Y94.769 E.04325
M204 S1000
G1 X116.181 Y95.02 F10800
M204 S800
G1 F1200
G1 X116.633 Y94.473 E.02225
G1 X117.371 Y93.723 E.03299
G1 X118.457 Y92.812 E.04444
G1 X120.435 Y91.578 E.0731
G1 X121.265 Y91.19 E.02873
G1 X122.73 Y90.666 E.04878
G1 X124.879 Y90.222 E.0688
G1 X126.5 Y90.123 E.05092
G1 X134.5 Y90.123 E.25083
G1 X135.807 Y90.515 E.04278
G1 X136.683 Y91.56 E.04275
G1 X136.877 Y92.5 E.03009
G1 X136.877 Y117.5 E.78386
G1 X136.485 Y118.807 E.04278
M73 P3 R7
M73 Q3 S7
G1 X135.44 Y119.683 E.04275
G1 X134.5 Y119.877 E.03009
G1 X125.791 Y119.857 E.27307
G1 X124.245 Y119.685 E.04877
G1 X122.73 Y119.334 E.04876
G1 X121.265 Y118.81 E.04878
G1 X119.752 Y118.049 E.0531
G1 X118.568 Y117.271 E.04442
G1 X117.371 Y116.277 E.04878
G1 X116.356 Y115.217 E.04602
G1 X115.729 Y114.432 E.0315
G1 X114.951 Y113.248 E.04442
G1 X114.245 Y111.861 E.0488
G1 X113.907 Y111.01 E.02871
G1 X113.469 Y109.517 E.04878
G1 X113.143 Y107.209 E.07308
G1 X113.123 Y103.5 E.11629
G1 X113.206 Y102.016 E.0466
G1 X113.469 Y100.482 E.0488
G1 X113.897 Y99.02 E.04776
G1 X114.245 Y98.139 E.0297
G1 X114.951 Y96.752 E.0488
G1 X115.729 Y95.568 E.04442
G1 X116.143 Y95.066 E.0204
M204 S1000
; printing object Körper1.stl id:0 copy 0
;WIPE_START
G1 F8640
G1 X116.633 Y94.473 E-.17762
G1 X117.371 Y93.723 E-.24296
G1 X118.457 Y92.812 E-.32731
G1 X118.648 Y92.693 E-.05211
;WIPE_END
G1 Z.6 F720
G1 X130.723 Y105.04 F10800
G1 Z.2 F720
G1 E.8 F2100
M204 S800
;TYPE:Perimeter
;WIDTH:0.419999
G1 F1200
G1 X130.723 Y105.11 E.00219
G1 X130.837 Y105.655 E.01746
G1 X131.165 Y106.179 E.01938
G1 X131.321 Y106.335 E.00692
G1 X131.763 Y106.627 E.01661
G1 X132.39 Y106.777 E.02021
G1 X132.614 Y106.776 E.00702
G1 X133.081 Y106.68 E.01495
G1 X133.452 Y106.502 E.0129
G1 X133.726 Y106.241 E.01186
G1 X133.713 Y116.713 E.32834
G1 X126.511 Y116.713 E.22581
M73 Q4 S7
G1 X125.906 Y116.695 E.01898
M73 P4 R7
G1 X125.314 Y116.644 E.01863
G1 X124.727 Y116.557 E.01861
G1 X124.145 Y116.437 E.01863
G1 X123.571 Y116.284 E.01863
G1 X123.007 Y116.097 E.01863
G1 X122.455 Y115.877 E.01863
G1 X121.917 Y115.626 E.01861
G1 X121.394 Y115.344 E.01863
G1 X120.91 Y115.046 E.01782
G1 X120.401 Y114.691 E.01946
G1 X119.935 Y114.323 E.01862
G1 X119.492 Y113.928 E.01861
G1 X119.072 Y113.508 E.01862
G1 X118.677 Y113.065 E.01861
G1 X118.308 Y112.599 E.01864
G1 X117.968 Y112.112 E.01862
G1 X117.656 Y111.606 E.01864
G1 X117.374 Y111.083 E.01863
G1 X117.123 Y110.545 E.01861
G1 X116.903 Y109.993 E.01863
G1 X116.716 Y109.429 E.01863
G1 X116.563 Y108.855 E.01863
G1 X116.443 Y108.273 E.01863
G1 X116.356 Y107.686 E.01861
G1 X116.305 Y107.094 E.01863
G1 X116.287 Y106.489 E.01898
G1 X116.287 Y103.511 E.09337
G1 X116.305 Y102.906 E.01898
G1 X116.356 Y102.314 E.01863
G1 X116.443 Y101.727 E.01861
G1 X116.563 Y101.145 E.01863
G1 X116.715 Y100.577 E.01844
G1 X117.013 Y99.731 E.02812
G1 X117.376 Y98.912 E.02809
G1 X117.656 Y98.394 E.01846
G1 X117.968 Y97.888 E.01864
G1 X118.308 Y97.401 E.01862
G1 X118.677 Y96.935 E.01864
G1 X119.072 Y96.492 E.01861
G1 X119.492 Y96.072 E.01862
G1 X119.935 Y95.677 E.01861
G1 X120.401 Y95.308 E.01864
G1 X120.888 Y94.968 E.01862
G1 X121.394 Y94.656 E.01864
G1 X121.917 Y94.374 E.01863
G1 X122.455 Y94.123 E.01861
G1 X123.007 Y93.903 E.01863
G1 X123.571 Y93.716 E.01863
G1 X124.145 Y93.563 E.01863
G1 X124.727 Y93.443 E.01863
G1 X125.314 Y93.356 E.01861
G1 X125.906 Y93.305 E.01863
G1 X126.511 Y93.287 E.01898
G1 X133.713 Y93.287 E.22581
G1 X133.713 Y102.509 E.28915
G1 X133.732 Y103.765 E.03939
G1 X133.4 Y103.472 E.01388
G1 X132.841 Y103.246 E.01891
G1 X132.357 Y103.227 E.01519
G1 X131.763 Y103.373 E.01918
G1 X131.321 Y103.665 E.01661
G1 X131.165 Y103.821 E.00692
G1 X130.846 Y104.32 E.01857
G1 X130.723 Y104.89 E.01828
G1 X130.723 Y104.98 E.00282
M204 S1000
;WIPE_START
G1 F8640
G1 X130.723 Y105.11 E-.03002
G1 X130.837 Y105.655 E-.12857
G1 X131.165 Y106.179 E-.14274
G1 X131.321 Y106.335 E-.05094
G1 X131.763 Y106.627 E-.12232
G1 X132.39 Y106.777 E-.14886
G1 X132.614 Y106.776 E-.05172
G1 X133.081 Y106.68 E-.11009
G1 X133.139 Y106.652 E-.01474
;WIPE_END
G1 Z.6 F720
G1 X134.09 Y92.91 F10800
G1 Z.2 F720
G1 E.8 F2100
M204 S800
;TYPE:External perimeter
G1 F1200
G1 X134.09 Y102.5 E.30069
G1 X134.106 Y103.558 E.03318
;WIDTH:0.426344
G1 X134.187 Y105.014 E.04649
;WIDTH:0.419107
G1 X134.184 Y105.056 E.00132
;WIDTH:0.419999
G1 X134.112 Y105.992 E.02943
G1 X134.094 Y106.5 E.01594
M73 Q5 S7
G1 X134.09 Y117.09 E.33204
G1 X126.506 Y117.09 E.23779
M73 P5 R7
G1 X125.884 Y117.072 E.01951
G1 X125.271 Y117.018 E.01929
G1 X124.661 Y116.929 E.01933
G1 X124.058 Y116.804 E.01931
G1 X123.463 Y116.645 E.01931
G1 X122.878 Y116.451 E.01932
G1 X122.306 Y116.224 E.0193
G1 X121.747 Y115.963 E.01934
G1 X121.205 Y115.671 E.0193
G1 X120.703 Y115.361 E.0185
G1 X120.176 Y114.994 E.02014
G1 X119.693 Y114.612 E.01931
G1 X119.233 Y114.203 E.0193
G1 X118.797 Y113.767 E.01933
G1 X118.388 Y113.307 E.0193
G1 X118.006 Y112.824 E.01931
G1 X117.652 Y112.319 E.01934
G1 X117.329 Y111.795 E.0193
G1 X117.037 Y111.253 E.0193
G1 X116.776 Y110.694 E.01934
G1 X116.549 Y110.122 E.0193
G1 X116.355 Y109.537 E.01932
G1 X116.196 Y108.942 E.01931
G1 X116.071 Y108.339 E.01931
G1 X115.982 Y107.729 E.01933
G1 X115.928 Y107.116 E.01929
G1 X115.91 Y106.494 E.01951
G1 X115.91 Y103.506 E.09369
G1 X115.928 Y102.884 E.01951
G1 X115.982 Y102.271 E.01929
G1 X116.071 Y101.661 E.01933
G1 X116.196 Y101.058 E.01931
G1 X116.355 Y100.465 E.01925
G1 X116.663 Y99.592 E.02903
G1 X117.038 Y98.746 E.02901
G1 X117.329 Y98.205 E.01926
G1 X117.652 Y97.681 E.0193
G1 X118.006 Y97.176 E.01934
G1 X118.388 Y96.693 E.01931
G1 X118.797 Y96.233 E.0193
G1 X119.233 Y95.797 E.01933
G1 X119.693 Y95.388 E.0193
G1 X120.176 Y95.006 E.01931
G1 X120.681 Y94.652 E.01934
G1 X121.205 Y94.329 E.0193
G1 X121.747 Y94.037 E.0193
G1 X122.306 Y93.776 E.01934
G1 X122.878 Y93.549 E.0193
G1 X123.463 Y93.355 E.01932
G1 X124.058 Y93.196 E.01931
G1 X124.661 Y93.071 E.01931
G1 X125.271 Y92.982 E.01933
G1 X125.884 Y92.928 E.01929
G1 X126.506 Y92.91 E.01951
G1 X134.03 Y92.91 E.23591
M204 S1000
G1 X133.89 Y93.257 F10800
;WIPE_START
G1 F8640
G1 X134.052 Y96.375 E-.8
;WIPE_END
G1 Z.6 F720
G1 X131.106 Y104.96 F10800
G1 Z.2 F720
G1 E.8 F2100
M204 S800
G1 F1200
G1 X131.186 Y104.495 E.01479
G1 X131.479 Y104.031 E.01721
G1 X131.927 Y103.714 E.01721
G1 X132.433 Y103.596 E.01629
G1 X132.813 Y103.629 E.01196
G1 X133.316 Y103.866 E.01743
;WIDTH:0.426241
G1 X133.666 Y104.271 E.01706
;WIDTH:0.426344
G1 X133.765 Y104.537 E.00905
G1 X133.81 Y105.021 E.0155
;WIDTH:0.427971
G1 X133.753 Y105.513 E.01586
G1 X133.62 Y105.794 E.00995
;WIDTH:0.419999
G1 X133.268 Y106.173 E.01622
G1 X133.005 Y106.311 E.00931
G1 X132.463 Y106.407 E.01726
G1 X131.942 Y106.295 E.01671
G1 X131.531 Y106.021 E.01549
G1 X131.214 Y105.573 E.01721
G1 X131.096 Y105.019 E.01776
M204 S1000
G1 X130.757 Y104.765 F10800
;WIPE_START
G1 F8640
G1 X131.186 Y104.495 E-.12276
G1 X131.479 Y104.031 E-.12671
G1 X131.927 Y103.714 E-.12672
G1 X132.433 Y103.596 E-.11997
G1 X132.813 Y103.629 E-.08807
G1 X133.316 Y103.866 E-.12839
G1 X133.563 Y104.152 E-.08738
;WIPE_END
G1 Z.6 F720
G1 X124.587 Y108.25 F10800
G1 Z.2 F720
G1 E.8 F2100
M204 S800
;TYPE:Perimeter
M73 Q6 S7
G1 F1200
G1 X124.122 Y108.147 E.01493
G1 X123.653 Y107.994 E.01547
G1 X123.356 Y107.843 E.01045
G1 X122.804 Y107.442 E.02139
G1 X122.266 Y106.819 E.02581
G1 X121.9 Y106.082 E.0258
G1 X121.857 Y105.955 E.0042
G1 X121.728 Y105.277 E.02164
G1 X121.728 Y104.723 E.01737
M73 P6 R7
G1 X121.856 Y104.053 E.02139
G1 X122.19 Y103.301 E.0258
G1 X122.701 Y102.655 E.02583
G1 X123.232 Y102.247 E.021
G1 X123.586 Y102.047 E.01275
G1 X124.115 Y101.838 E.01783
G1 X124.883 Y101.72 E.02436
G1 X125.386 Y101.736 E.01578
G1 X125.885 Y101.838 E.01597
G1 X126.52 Y102.089 E.02141
G1 X127.196 Y102.558 E.0258
G1 X127.696 Y103.135 E.02394
G1 X127.942 Y103.58 E.01594
G1 X128.144 Y104.053 E.01613
G1 X128.272 Y104.723 E.02139
G1 X128.255 Y105.275 E.01732
G1 X128.212 Y105.685 E.01293
G1 X128.001 Y106.334 E.0214
G1 X127.575 Y107.038 E.0258
G1 X126.987 Y107.614 E.02581
G1 X126.274 Y108.026 E.02582
G1 X125.482 Y108.248 E.02579
G1 X124.645 Y108.263 E.02625
M204 S1000
G1 X124.634 Y107.883 F10800
M204 S800
;TYPE:External perimeter
G1 F1200
G1 X123.951 Y107.713 E.02207
G1 X123.578 Y107.538 E.01292
G1 X123.026 Y107.137 E.02139
G1 X122.557 Y106.579 E.02285
G1 X122.227 Y105.879 E.02426
G1 X122.098 Y105.206 E.02149
G1 X122.098 Y104.794 E.01292
G1 X122.226 Y104.124 E.02139
G1 X122.531 Y103.461 E.02288
G1 X122.991 Y102.896 E.02284
G1 X123.454 Y102.552 E.01809
G1 X123.725 Y102.398 E.00977
G1 X124.254 Y102.188 E.01785
G1 X124.932 Y102.094 E.02146
G1 X125.376 Y102.114 E.01394
G1 X125.746 Y102.188 E.01183
G1 X126.381 Y102.439 E.02141
G1 X126.974 Y102.863 E.02286
G1 X127.405 Y103.375 E.02098
G1 X127.759 Y104.079 E.02471
G1 X127.902 Y104.794 E.02286
G1 X127.862 Y105.522 E.02286
G1 X127.622 Y106.26 E.02433
G1 X127.256 Y106.836 E.0214
G1 X126.729 Y107.34 E.02286
G1 X126.093 Y107.696 E.02285
G1 X125.388 Y107.883 E.02287
G1 X124.694 Y107.889 E.02176
M204 S1000
G1 X124.394 Y108.203 F10800
;WIPE_START
G1 F8640
G1 X123.951 Y107.713 E-.17631
G1 X123.578 Y107.538 E-.09513
G1 X123.026 Y107.137 E-.15754
G1 X122.557 Y106.579 E-.16831
G1 X122.227 Y105.879 E-.17869
G1 X122.207 Y105.777 E-.02402
;WIPE_END
G1 Z.6 F720
G1 X122.53 Y110.277 F10800
G1 Z.2 F720
G1 E.8 F2100
M204 S800
;TYPE:Perimeter
G1 F1200
G1 X122.812 Y110.656 E.01481
G1 X122.934 Y110.917 E.00903
G1 X123.035 Y111.437 E.01661
G1 X122.934 Y112.073 E.02019
G1 X122.85 Y112.277 E.00692
G1 X122.541 Y112.731 E.01722
G1 X122.032 Y113.095 E.01962
G1 X121.749 Y113.195 E.00941
G1 X121.32 Y113.279 E.01371
G1 X120.672 Y113.179 E.02056
G1 X120.485 Y113.106 E.00629
G1 X120.061 Y112.823 E.01598
G1 X119.915 Y112.674 E.00654
G1 X119.65 Y112.277 E.01497
G1 X119.56 Y112.042 E.00789
G1 X119.466 Y111.563 E.01531
G1 X119.566 Y110.917 E.0205
G1 X119.65 Y110.713 E.00692
G1 X119.982 Y110.235 E.01825
G1 X120.468 Y109.895 E.0186
G1 X120.668 Y109.812 E.00679
G1 X121.264 Y109.712 E.01895
G1 X121.654 Y109.755 E.0123
G1 X122.032 Y109.895 E.01264
G1 X122.458 Y110.181 E.01609
G1 X122.494 Y110.229 E.00188
M204 S1000
G1 X122.281 Y110.544 F10800
M204 S800
;TYPE:External perimeter
G1 F1200
G1 X122.536 Y110.923 E.01432
G1 X122.657 Y111.458 E.0172
G1 X122.564 Y112 E.01724
G1 X122.271 Y112.464 E.01721
G1 X121.823 Y112.781 E.01721
G1 X121.287 Y112.903 E.01724
G1 X120.683 Y112.785 E.0193
G1 X120.252 Y112.493 E.01632
G1 X119.964 Y112.068 E.0161
G1 X119.843 Y111.532 E.01723
G1 X119.936 Y110.991 E.01721
G1 X120.204 Y110.562 E.01586
G1 X120.281 Y110.474 E.00367
G1 X120.698 Y110.197 E.0157
G1 X121.194 Y110.089 E.01592
G1 X121.544 Y110.116 E.01101
G1 X121.823 Y110.209 E.00922
G1 X122.244 Y110.497 E.01599
M204 S1000
G1 X122.671 Y110.456 F10800
;WIPE_START
G1 F8640
G1 X122.536 Y110.923 E-.11925
G1 X122.657 Y111.458 E-.12665
G1 X122.564 Y112 E-.12698
G1 X122.271 Y112.464 E-.12671
G1 X121.823 Y112.781 E-.12672
G1 X121.287 Y112.903 E-.12693
G1 X121.088 Y112.864 E-.04676
;WIPE_END
G1 Z.6 F720
G1 X122.521 Y99.74 F10800
G1 Z.2 F720
G1 E.8 F2100
M204 S800
;TYPE:Perimeter
G1 F1200
G1 X122.334 Y99.903 E.00778
G1 X121.966 Y100.142 E.01376
G1 X121.36 Y100.282 E.0195
G1 X121.14 Y100.282 E.0069
G1 X120.541 Y100.146 E.01926
G1 X120.071 Y99.84 E.01758
G1 X119.915 Y99.684 E.00692
G1 X119.575 Y99.121 E.02062
G1 X119.473 Y98.615 E.01618
G1 X119.473 Y98.394 E.00693
G1 X119.623 Y97.768 E.02018
G1 X119.915 Y97.326 E.01661
G1 X120.071 Y97.17 E.00692
G1 X120.596 Y96.841 E.01943
G1 X121.106 Y96.731 E.01636
G1 X121.531 Y96.742 E.01333
G1 X121.956 Y96.862 E.01385
G1 X122.429 Y97.17 E.0177
M73 Q7 S7
G1 X122.636 Y97.403 E.00977
G1 X122.912 Y97.845 E.01634
G1 X123.027 Y98.394 E.01759
G1 X123.008 Y98.712 E.00999
G1 X122.905 Y99.181 E.01506
G1 X122.566 Y99.7 E.01944
M204 S1000
G1 X122.21 Y99.517 F10800
M204 S800
;TYPE:External perimeter
G1 F1200
G1 X121.823 Y99.791 E.01487
G1 X121.287 Y99.912 E.01723
G1 X120.745 Y99.819 E.01724
G1 X120.281 Y99.526 E.01721
G1 X119.964 Y99.077 E.01723
G1 X119.843 Y98.542 E.0172
M73 P7 R7
G1 X119.929 Y98.031 E.01625
G1 X120.229 Y97.536 E.01815
G1 X120.677 Y97.219 E.01721
G1 X121.182 Y97.101 E.01626
G1 X121.543 Y97.125 E.01134
G1 X121.823 Y97.219 E.00926
G1 X122.257 Y97.517 E.01651
G1 X122.557 Y97.973 E.01711
G1 X122.657 Y98.468 E.01583
G1 X122.564 Y99.009 E.01721
G1 X122.259 Y99.483 E.01767
M204 S1000
G1 X122.319 Y99.902 F10800
;WIPE_START
G1 F8640
G1 X121.823 Y99.791 E-.12326
G1 X121.287 Y99.912 E-.12688
G1 X120.745 Y99.819 E-.12698
G1 X120.281 Y99.526 E-.12671
G1 X119.964 Y99.077 E-.12691
G1 X119.843 Y98.542 E-.12665
G1 X119.874 Y98.36 E-.04261
;WIPE_END
G1 Z.6 F720
G1 X133.547 Y107.108 F10800
G1 Z.2 F720
G1 E.8 F2100
M204 S800
;TYPE:Solid infill
;WIDTH:0.42241
G1 F1200
G1 X133.37 Y106.932 E.00788
G1 X133.161 Y107.01 E.00704
G1 X132.955 Y107.053 E.00664
G1 X133.377 Y107.475 E.01883
G1 X133.377 Y108.011 E.01691
G1 X132.297 Y106.932 E.04817
M204 S1000
;WIPE_START
G1 F8640
G1 X133.377 Y108.011 E-.35251
G1 X133.377 Y107.475 E-.12376
G1 X132.955 Y107.053 E-.1378
G1 X133.161 Y107.01 E-.04859
G1 X133.37 Y106.932 E-.05151
G1 X133.547 Y107.108 E-.05764
;WIPE_END
G1 E-.02819 F2100
G1 Z.6 F720
G1 X133.543 Y94.224 F10800
G1 Z.2 F720
M73 P7 R6
G1 E.8 F2100
M204 S800
G1 F1200
G1 X132.946 Y93.626 E.02666
G1 X132.409 Y93.626 E.01694
