; generated by PrusaSlicer 2.6.1+win64 on 2023-10-21 at 08:16:02 UTC


;
;
; 

; external perimeters extrusion width = 0.45mm
; perimeters extrusion width = 0.45mm
; infill extrusion width = 0.45mm
; solid infill extrusion width = 0.45mm
; top infill extrusion width = 0.40mm
; first layer extrusion width = 0.42mm

M73 P0 R7
M73 Q0 S7
M201 X1000 Y1000 Z200 E5000 ; sets maximum accelerations, mm/sec^2
M203 X200 Y200 Z12 E120 ; sets maximum feedrates, mm / sec
M204 S1250 T1250 ; sets acceleration (S) and retract acceleration (R), mm/sec^2
M205 X8.00 Y8.00 Z0.40 E4.50 ; sets the jerk limits, mm/sec
M205 S0 T0 ; sets the minimum extruding and travel feed rate, mm/sec
;TYPE:Custom
M862.3 P "MK3S" ; printer model check
M862.1 P0.4 ; nozzle diameter check
M115 U3.13.0 ; tell printer latest fw version
G90 ; use absolute coordinates
M83 ; extruder relative mode
M104 S215 ; set extruder temp
M140 S60 ; set bed temp
M190 S60 ; wait for bed temp
M109 S215 ; wait for extruder temp
G28 W ; home all without mesh bed level
G80 ; mesh bed leveling

G1 Z0.2 F720
G1 Y-3 F1000 ; go outside print area
G92 E0
G1 X60 E9 F1000 ; intro line
G1 X100 E12.5 F1000 ; intro line

G92 E0
M221 S95

; Don't change E values below. Excessive value can damage the printer.
M907 E430 ; set extruder motor current
G21 ; set units to millimeters
G90 ; use absolute coordinates
M83 ; use relative distances for extrusion
M900 K0.05 ; Filament gcode LA 1.5
M900 K30 ; Filament gcode LA 1.0
M107
;LAYER_CHANGE
;Z:0.2
;HEIGHT:0.2
;BEFORE_LAYER_CHANGE
G92 E0.0
;0.2


G1 E-.8 F2100
M73 P1 R7
M73 Q1 S7
G1 Z.4 F720
;AFTER_LAYER_CHANGE
;0.2
G1 X129.869 Y97.852 F10800
G1 Z.2 F720
G1 E.8 F2100
M204 S800
;TYPE:Skirt/Brim
;WIDTH:0.42
G1 F1200
G1 X130.937 Y96.705 E.04914
G1 X131.677 Y96.044 E.03111
G1 X132.831 Y95.185 E.04511
G1 X134.212 Y94.377 E.05017
G1 X135.082 Y93.971 E.0301
G1 X136.434 Y93.479 E.04511
G1 X138.146 Y93.073 E.05517
G1 X140.375 Y92.878 E.07016
G1 X148.455 Y92.877 E.25334
G1 X149.873 Y93.27 E.04614
G1 X150.886 Y94.336 E.04611
G1 X151.21 Y95.631 E.04186
G1 X151.21 Y120.631 E.78386
G1 X150.817 Y122.049 E.04614
M73 P2 R7
M73 Q2 S7
G1 X149.751 Y123.062 E.04611
G1 X148.455 Y123.385 E.04188
G1 X140.375 Y123.384 E.25334
G1 X138.233 Y123.202 E.0674
G1 X136.588 Y122.829 E.05289
G1 X135.082 Y122.291 E.05014
G1 X133.648 Y121.582 E.05016
G1 X132.831 Y121.078 E.0301
G1 X131.554 Y120.115 E.05015
G1 X130.507 Y119.127 E.04514
G1 X129.472 Y117.908 E.05014
G1 X128.921 Y117.122 E.0301
G1 X128.129 Y115.732 E.05016
G1 X127.504 Y114.26 E.05014
G1 X127.055 Y112.725 E.05015
G1 X126.805 Y111.307 E.04515
G1 X126.721 Y110.351 E.03009
G1 X126.701 Y106.631 E.11664
G1 X126.786 Y105.114 E.04764
G1 X127.048 Y103.569 E.04913
G1 X127.303 Y102.61 E.03111
G1 X127.796 Y101.257 E.04515
G1 X128.505 Y99.824 E.05013
G1 X129.009 Y99.007 E.0301
G1 X129.833 Y97.9 E.04327
M204 S1000
G1 X130.137 Y98.151 F10800
M204 S800
G1 F1200
G1 X130.588 Y97.604 E.02223
G1 X131.327 Y96.854 E.03301
G1 X132.412 Y95.943 E.04442
G1 X134.39 Y94.709 E.0731
G1 X135.221 Y94.322 E.02874
G1 X136.685 Y93.797 E.04876
G1 X138.834 Y93.354 E.0688
G1 X140.455 Y93.254 E.05092
G1 X148.455 Y93.254 E.25083
G1 X149.762 Y93.646 E.04278
G1 X150.639 Y94.691 E.04277
G1 X150.833 Y95.631 E.03009
G1 X150.833 Y120.631 E.78386
G1 X150.441 Y121.938 E.04278
M73 P3 R7
M73 Q3 S7
G1 X149.395 Y122.815 E.0428
G1 X148.455 Y123.008 E.03009
G1 X139.747 Y122.989 E.27303
G1 X138.201 Y122.816 E.04878
G1 X136.685 Y122.465 E.04879
G1 X135.221 Y121.941 E.04875
G1 X133.708 Y121.181 E.05309
G1 X132.523 Y120.402 E.04446
G1 X131.327 Y119.408 E.04876
G1 X130.312 Y118.348 E.04602
G1 X129.685 Y117.563 E.0315
G1 X128.906 Y116.379 E.04444
G1 X128.201 Y114.993 E.04876
G1 X127.862 Y114.141 E.02875
G1 X127.424 Y112.649 E.04875
G1 X127.098 Y110.34 E.07312
G1 X127.078 Y106.631 E.11629
G1 X127.162 Y105.147 E.0466
G1 X127.424 Y103.614 E.04876
G1 X127.852 Y102.152 E.04776
G1 X128.201 Y101.27 E.02974
G1 X128.906 Y99.883 E.04878
G1 X129.685 Y98.699 E.04444
G1 X130.099 Y98.197 E.0204
M204 S1000
; printing object Motor halter test v3.stl id:0 copy 0
;WIPE_START
G1 F8640
G1 X130.588 Y97.604 E-.17748
G1 X131.327 Y96.854 E-.24312
G1 X132.412 Y95.943 E-.32713
G1 X132.604 Y95.823 E-.05227
;WIPE_END
G1 Z.6 F720
G1 X144.678 Y108.172 F10800
G1 Z.2 F720
G1 E.8 F2100
M204 S800
;TYPE:Perimeter
;WIDTH:0.419999
G1 F1200
G1 X144.678 Y108.242 E.00219
G1 X144.792 Y108.786 E.01743
G1 X145.121 Y109.31 E.0194
G1 X145.277 Y109.466 E.00692
G1 X145.718 Y109.758 E.01658
G1 X146.345 Y109.908 E.02021
G1 X146.57 Y109.907 E.00705
G1 X147.036 Y109.811 E.01492
G1 X147.408 Y109.633 E.01293
G1 X147.681 Y109.373 E.01182
G1 X147.669 Y119.844 E.32831
G1 X140.467 Y119.844 E.22581
M73 Q4 S7
G1 X139.862 Y119.827 E.01898
M73 P4 R7
G1 X139.27 Y119.775 E.01863
G1 X138.682 Y119.689 E.01863
G1 X138.1 Y119.568 E.01864
G1 X137.526 Y119.415 E.01863
G1 X136.963 Y119.228 E.0186
G1 X136.41 Y119.009 E.01865
G1 X135.872 Y118.758 E.01861
G1 X135.349 Y118.476 E.01863
G1 X134.865 Y118.177 E.01784
G1 X134.356 Y117.823 E.01944
G1 X133.891 Y117.455 E.01859
G1 X133.447 Y117.06 E.01863
G1 X133.027 Y116.64 E.01862
G1 X132.632 Y116.196 E.01863
G1 X132.264 Y115.73 E.01862
G1 X131.923 Y115.243 E.01864
G1 X131.611 Y114.737 E.01864
G1 X131.329 Y114.215 E.0186
G1 X131.078 Y113.676 E.01864
G1 X130.859 Y113.124 E.01862
G1 X130.672 Y112.56 E.01863
G1 X130.518 Y111.986 E.01863
G1 X130.398 Y111.405 E.0186
G1 X130.312 Y110.817 E.01863
G1 X130.26 Y110.225 E.01863
G1 X130.243 Y109.62 E.01898
G1 X130.243 Y106.643 E.09334
G1 X130.26 Y106.037 E.01901
G1 X130.312 Y105.446 E.0186
G1 X130.398 Y104.858 E.01863
G1 X130.518 Y104.276 E.01863
G1 X130.67 Y103.708 E.01844
G1 X130.969 Y102.862 E.02813
G1 X131.332 Y102.043 E.02809
G1 X131.611 Y101.525 E.01845
G1 X131.923 Y101.019 E.01864
G1 X132.264 Y100.533 E.01861
G1 X132.632 Y100.067 E.01862
G1 X133.027 Y99.623 E.01863
G1 X133.447 Y99.203 E.01862
G1 X133.891 Y98.808 E.01863
G1 X134.357 Y98.439 E.01864
G1 X134.844 Y98.099 E.01862
G1 X135.349 Y97.787 E.01861
G1 X135.872 Y97.505 E.01863
G1 X136.41 Y97.254 E.01861
G1 X136.963 Y97.035 E.01865
G1 X137.526 Y96.848 E.0186
G1 X138.1 Y96.694 E.01863
G1 X138.682 Y96.574 E.01863
G1 X139.27 Y96.488 E.01863
G1 X139.862 Y96.436 E.01863
G1 X140.467 Y96.418 E.01898
G1 X147.668 Y96.418 E.22578
G1 X147.668 Y105.64 E.28915
G1 X147.687 Y106.896 E.03939
G1 X147.355 Y106.603 E.01388
G1 X146.796 Y106.377 E.01891
G1 X146.312 Y106.358 E.01519
G1 X145.719 Y106.504 E.01915
G1 X145.277 Y106.796 E.01661
G1 X145.121 Y106.952 E.00692
G1 X144.802 Y107.451 E.01857
G1 X144.678 Y108.021 E.01829
G1 X144.678 Y108.112 E.00285
M204 S1000
;WIPE_START
G1 F8640
G1 X144.678 Y108.242 E-.03002
G1 X144.792 Y108.786 E-.12834
G1 X145.121 Y109.31 E-.14286
G1 X145.277 Y109.466 E-.05094
G1 X145.718 Y109.758 E-.12213
G1 X146.345 Y109.908 E-.14886
G1 X146.57 Y109.907 E-.05195
G1 X147.036 Y109.811 E-.10986
G1 X147.095 Y109.783 E-.01504
;WIPE_END
G1 Z.6 F720
G1 X148.045 Y96.041 F10800
G1 Z.2 F720
G1 E.8 F2100
M204 S800
;TYPE:External perimeter
G1 F1200
G1 X148.045 Y105.631 E.30069
G1 X148.061 Y106.689 E.03318
;WIDTH:0.426344
G1 X148.143 Y108.146 E.04653
;WIDTH:0.419107
G1 X148.14 Y108.187 E.00129
;WIDTH:0.419999
G1 X148.068 Y109.123 E.02943
G1 X148.049 Y109.631 E.01594
M73 Q5 S7
G1 X148.046 Y120.221 E.33204
G1 X140.461 Y120.221 E.23782
M73 P5 R7
G1 X139.84 Y120.203 E.01948
G1 X139.226 Y120.149 E.01933
G1 X138.617 Y120.06 E.0193
G1 X138.013 Y119.936 E.01933
G1 X137.418 Y119.776 E.01932
G1 X136.833 Y119.582 E.01932
G1 X136.261 Y119.355 E.0193
G1 X135.703 Y119.095 E.0193
G1 X135.161 Y118.802 E.01932
G1 X134.658 Y118.492 E.01853
G1 X134.131 Y118.125 E.02014
G1 X133.648 Y117.743 E.01931
G1 X133.188 Y117.334 E.0193
G1 X132.753 Y116.898 E.01931
G1 X132.343 Y116.438 E.01932
G1 X131.961 Y115.955 E.01931
G1 X131.608 Y115.45 E.01932
G1 X131.284 Y114.926 E.01932
G1 X130.992 Y114.384 E.0193
G1 X130.732 Y113.826 E.0193
G1 X130.504 Y113.253 E.01934
G1 X130.31 Y112.668 E.01932
G1 X130.151 Y112.073 E.01931
G1 X130.026 Y111.47 E.01931
G1 X129.937 Y110.861 E.0193
G1 X129.884 Y110.247 E.01932
G1 X129.865 Y109.625 E.01951
G1 X129.865 Y106.637 E.09369
G1 X129.884 Y106.015 E.01951
G1 X129.937 Y105.402 E.01929
G1 X130.026 Y104.792 E.01933
G1 X130.151 Y104.189 E.01931
G1 X130.31 Y103.596 E.01925
G1 X130.618 Y102.723 E.02903
G1 X130.993 Y101.877 E.02901
G1 X131.284 Y101.336 E.01926
G1 X131.608 Y100.812 E.01932
G1 X131.961 Y100.307 E.01932
G1 X132.343 Y99.824 E.01931
G1 X132.753 Y99.364 E.01932
G1 X133.188 Y98.928 E.01931
G1 X133.648 Y98.519 E.0193
G1 X134.132 Y98.137 E.01933
G1 X134.636 Y97.784 E.01929
G1 X135.161 Y97.46 E.01934
G1 X135.703 Y97.168 E.0193
G1 X136.261 Y96.907 E.01931
G1 X136.833 Y96.68 E.0193
G1 X137.418 Y96.486 E.01932
G1 X138.013 Y96.327 E.01931
G1 X138.617 Y96.202 E.01934
G1 X139.226 Y96.113 E.0193
G1 X139.84 Y96.059 E.01933
G1 X140.461 Y96.041 E.01948
G1 X147.985 Y96.041 E.23591
M204 S1000
G1 X147.846 Y96.388 F10800
;WIPE_START
G1 F8640
G1 X148.007 Y99.506 E-.8
;WIPE_END
G1 Z.6 F720
G1 X145.054 Y108.194 F10800
G1 Z.2 F720
G1 E.8 F2100
M204 S800
G1 F1200
G1 X145.141 Y107.627 E.01799
G1 X145.434 Y107.162 E.01723
G1 X145.883 Y106.845 E.01723
G1 X146.388 Y106.727 E.01626
G1 X146.769 Y106.76 E.01199
G1 X147.271 Y106.997 E.01741
;WIDTH:0.426241
G1 X147.621 Y107.402 E.01706
;WIDTH:0.426344
G1 X147.72 Y107.668 E.00905
G1 X147.766 Y108.152 E.0155
;WIDTH:0.427971
G1 X147.709 Y108.644 E.01586
G1 X147.575 Y108.925 E.00997
;WIDTH:0.419999
G1 X147.223 Y109.304 E.01622
G1 X146.96 Y109.442 E.00931
G1 X146.419 Y109.538 E.01723
G1 X145.898 Y109.426 E.01671
G1 X145.486 Y109.152 E.01551
G1 X145.169 Y108.704 E.01721
G1 X145.067 Y108.253 E.0145
M204 S1000
G1 X144.7 Y108.008 F10800
;WIPE_START
G1 F8640
G1 X145.141 Y107.627 E-.14555
G1 X145.434 Y107.162 E-.12691
G1 X145.883 Y106.845 E-.12691
G1 X146.388 Y106.727 E-.11975
G1 X146.769 Y106.76 E-.0883
G1 X147.271 Y106.997 E-.12818
G1 X147.453 Y107.208 E-.0644
;WIPE_END
G1 Z.6 F720
G1 X139.36 Y111.381 F10800
G1 Z.2 F720
G1 E.8 F2100
M204 S800
;TYPE:Perimeter
G1 F1200
M73 Q6 S7
G1 X138.614 Y111.397 E.0234
G1 X138.078 Y111.278 E.01722
G1 X137.609 Y111.125 E.01547
G1 X137.312 Y110.974 E.01045
G1 X136.759 Y110.573 E.02142
G1 X136.221 Y109.95 E.02581
G1 X135.855 Y109.213 E.0258
G1 X135.813 Y109.086 E.00419
G1 X135.683 Y108.408 E.02165
G1 X135.683 Y107.854 E.01737
M73 P6 R7
G1 X135.811 Y107.184 E.02139
G1 X136.145 Y106.432 E.0258
G1 X136.656 Y105.786 E.02583
G1 X137.188 Y105.378 E.02102
G1 X137.542 Y105.178 E.01275
G1 X138.07 Y104.969 E.0178
G1 X138.838 Y104.851 E.02436
G1 X139.342 Y104.867 E.01581
G1 X139.841 Y104.969 E.01597
G1 X140.475 Y105.22 E.02138
G1 X141.151 Y105.689 E.0258
G1 X141.651 Y106.266 E.02394
G1 X141.897 Y106.712 E.01597
G1 X142.1 Y107.184 E.01611
G1 X142.228 Y107.854 E.02139
G1 X142.211 Y108.407 E.01735
G1 X142.167 Y108.816 E.0129
G1 X141.956 Y109.465 E.0214
G1 X141.53 Y110.169 E.0258
G1 X140.943 Y110.746 E.02581
G1 X140.23 Y111.158 E.02582
G1 X139.42 Y111.38 E.02633
M204 S1000
G1 X139.366 Y111.008 F10800
M204 S800
;TYPE:External perimeter
G1 F1200
G1 X138.614 Y111.02 E.02358
G1 X137.907 Y110.845 E.02284
G1 X137.533 Y110.669 E.01296
G1 X136.981 Y110.268 E.02139
G1 X136.512 Y109.71 E.02285
G1 X136.182 Y109.01 E.02426
G1 X136.054 Y108.338 E.02145
G1 X136.054 Y107.925 E.01295
G1 X136.182 Y107.255 E.02139
G1 X136.487 Y106.592 E.02288
G1 X136.947 Y106.027 E.02284
G1 X137.409 Y105.684 E.01804
G1 X137.681 Y105.529 E.00982
G1 X138.209 Y105.32 E.0178
G1 X138.887 Y105.225 E.02147
G1 X139.332 Y105.246 E.01397
G1 X139.702 Y105.32 E.01183
G1 X140.336 Y105.571 E.02138
G1 X140.93 Y105.994 E.02286
G1 X141.361 Y106.506 E.02098
G1 X141.715 Y107.21 E.02471
G1 X141.857 Y107.925 E.02286
G1 X141.817 Y108.653 E.02286
G1 X141.577 Y109.391 E.02433
G1 X141.212 Y109.967 E.02138
G1 X140.684 Y110.471 E.02289
G1 X140.048 Y110.827 E.02285
G1 X139.424 Y110.993 E.02025
M204 S1000
G1 X139.216 Y111.379 F10800
;WIPE_START
G1 F8640
G1 X138.614 Y111.02 E-.18714
G1 X137.907 Y110.845 E-.16817
G1 X137.533 Y110.669 E-.09544
G1 X136.981 Y110.268 E-.15754
G1 X136.512 Y109.71 E-.16831
G1 X136.469 Y109.618 E-.0234
;WIPE_END
G1 Z.6 F720
G1 X136.485 Y113.409 F10800
G1 Z.2 F720
G1 E.8 F2100
M204 S800
;TYPE:Perimeter
G1 F1200
G1 X136.767 Y113.787 E.01479
G1 X136.89 Y114.048 E.00905
G1 X136.991 Y114.568 E.01661
G1 X136.89 Y115.205 E.02022
G1 X136.805 Y115.408 E.0069
G1 X136.497 Y115.862 E.0172
G1 X135.988 Y116.226 E.01962
G1 X135.704 Y116.326 E.00944
G1 X135.276 Y116.41 E.01368
G1 X134.627 Y116.311 E.02058
G1 X134.44 Y116.237 E.00631
G1 X134.016 Y115.954 E.01598
G1 X133.871 Y115.805 E.00652
G1 X133.606 Y115.408 E.01497
G1 X133.515 Y115.174 E.00787
G1 X133.421 Y114.694 E.01534
G1 X133.521 Y114.048 E.0205
G1 X133.606 Y113.844 E.00693
G1 X133.937 Y113.366 E.01823
G1 X134.423 Y113.027 E.01858
G1 X134.624 Y112.943 E.00683
G1 X135.219 Y112.843 E.01892
G1 X135.609 Y112.886 E.0123
G1 X135.988 Y113.027 E.01268
G1 X136.413 Y113.312 E.01604
G1 X136.449 Y113.36 E.00188
M204 S1000
G1 X136.241 Y113.682 F10800
M204 S800
;TYPE:External perimeter
G1 F1200
G1 X136.492 Y114.054 E.01407
G1 X136.613 Y114.59 E.01723
G1 X136.52 Y115.131 E.01721
G1 X136.227 Y115.596 E.01723
G1 X135.778 Y115.913 E.01723
G1 X135.242 Y116.034 E.01723
G1 X134.638 Y115.916 E.0193
G1 X134.208 Y115.624 E.0163
G1 X133.919 Y115.199 E.01611
G1 X133.798 Y114.663 E.01723
G1 X133.891 Y114.122 E.01721
G1 X134.16 Y113.694 E.01585
G1 X134.236 Y113.605 E.00367
G1 X134.654 Y113.328 E.01572
G1 X135.15 Y113.22 E.01592
G1 X135.5 Y113.247 E.01101
G1 X135.778 Y113.34 E.00919
G1 X136.207 Y113.634 E.01631
M204 S1000
G1 X136.632 Y113.596 F10800
;WIPE_START
G1 F8640
G1 X136.492 Y114.054 E-.1172
G1 X136.613 Y114.59 E-.12688
G1 X136.52 Y115.131 E-.12675
G1 X136.227 Y115.596 E-.12691
G1 X135.778 Y115.913 E-.12691
G1 X135.242 Y116.034 E-.12688
G1 X135.036 Y115.994 E-.04847
;WIPE_END
G1 Z.6 F720
G1 X136.476 Y102.871 F10800
G1 Z.2 F720
G1 E.8 F2100
M204 S800
;TYPE:Perimeter
G1 F1200
G1 X136.289 Y103.034 E.00778
G1 X135.922 Y103.274 E.01375
G1 X135.316 Y103.413 E.01949
G1 X135.095 Y103.413 E.00693
G1 X134.497 Y103.277 E.01923
G1 X134.027 Y102.971 E.01758
G1 X133.871 Y102.815 E.00692
G1 X133.53 Y102.252 E.02064
G1 X133.428 Y101.746 E.01618
G1 X133.428 Y101.526 E.0069
G1 X133.578 Y100.899 E.02021
G1 X133.871 Y100.457 E.01663
G1 X134.027 Y100.301 E.00692
G1 X134.552 Y99.972 E.01943
G1 X135.062 Y99.862 E.01636
G1 X135.487 Y99.873 E.01333
G1 X135.911 Y99.993 E.01382
G1 X136.384 Y100.301 E.0177
G1 X136.591 Y100.534 E.00977
G1 X136.867 Y100.976 E.01634
G1 X136.983 Y101.526 E.01762
G1 X136.963 Y101.843 E.00996
M73 Q7 S7
G1 X136.861 Y102.312 E.01505
G1 X136.521 Y102.831 E.01945
M204 S1000
G1 X136.168 Y102.647 F10800
M204 S800
;TYPE:External perimeter
G1 F1200
G1 X135.778 Y102.922 E.01496
G1 X135.242 Y103.043 E.01723
G1 X134.701 Y102.95 E.01721
G1 X134.236 Y102.657 E.01723
G1 X133.919 Y102.209 E.01721
G1 X133.798 Y101.673 E.01723
G1 X133.885 Y101.162 E.01625
G1 X134.184 Y100.667 E.01813
G1 X134.633 Y100.35 E.01723
M73 P7 R7
G1 X135.138 Y100.232 E.01626
G1 X135.498 Y100.256 E.01131
G1 X135.778 Y100.35 E.00926
G1 X136.212 Y100.648 E.01651
G1 X136.512 Y101.104 E.01711
G1 X136.613 Y101.599 E.01584
G1 X136.52 Y102.141 E.01724
G1 X136.217 Y102.612 E.01756
M204 S1000
G1 X136.277 Y103.031 F10800
;WIPE_START
G1 F8640
G1 X135.778 Y102.922 E-.12409
G1 X135.242 Y103.043 E-.12688
G1 X134.701 Y102.95 E-.12675
G1 X134.236 Y102.657 E-.12691
G1 X133.919 Y102.209 E-.12672
G1 X133.798 Y101.673 E-.12688
G1 X133.828 Y101.495 E-.04177
;WIPE_END
G1 Z.6 F720
G1 X147.502 Y110.239 F10800
G1 Z.2 F720
G1 E.8 F2100
M204 S800
;TYPE:Solid infill
;WIDTH:0.42241
G1 F1200
G1 X147.326 Y110.063 E.00785
G1 X147.116 Y110.141 E.00707
G1 X146.91 Y110.184 E.00664
G1 X147.332 Y110.606 E.01883
G1 X147.332 Y111.142 E.01691
G1 X146.252 Y110.063 E.04817
M204 S1000
;WIPE_START
G1 F8640
G1 X147.332 Y111.142 E-.35251
G1 X147.332 Y110.606 E-.12376
G1 X146.91 Y110.184 E-.1378
G1 X147.116 Y110.141 E-.04859
G1 X147.326 Y110.063 E-.05173
G1 X147.502 Y110.239 E-.05747
;WIPE_END
G1 E-.02814 F2100
G1 Z.6 F720
G1 X147.499 Y97.355 F10800
G1 Z.2 F720
