; generated by PrusaSlicer 2.6.1+win64 on 2023-10-21 at 08:45:23 UTC


;
;
; 

; external perimeters extrusion width = 0.45mm
; perimeters extrusion width = 0.45mm
; infill extrusion width = 0.45mm
; solid infill extrusion width = 0.45mm
; top infill extrusion width = 0.40mm
; first layer extrusion width = 0.42mm

M73 P0 R15
M73 Q0 S15
M201 X1000 Y1000 Z200 E5000 ; sets maximum accelerations, mm/sec^2
M203 X200 Y200 Z12 E120 ; sets maximum feedrates, mm / sec
M204 S1250 T1250 ; sets acceleration (S) and retract acceleration (R), mm/sec^2
M205 X8.00 Y8.00 Z0.40 E4.50 ; sets the jerk limits, mm/sec
M205 S0 T0 ; sets the minimum extruding and travel feed rate, mm/sec
;TYPE:Custom
M862.3 P "MK3S" ; printer model check
M862.1 P0.4 ; nozzle diameter check
M115 U3.13.0 ; tell printer latest fw version
G90 ; use absolute coordinates
M83 ; extruder relative mode
M104 S255 ; set extruder temp
M140 S100 ; set bed temp
M190 S100 ; wait for bed temp
M109 S255 ; wait for extruder temp
G28 W ; home all without mesh bed level
G80 ; mesh bed leveling

G1 Z0.2 F720
G1 Y-3 F1000 ; go outside print area
G92 E0
G1 X60 E9 F1000 ; intro line
G1 X100 E12.5 F1000 ; intro line

G92 E0
M221 S95

; Don't change E values below. Excessive value can damage the printer.
M907 E430 ; set extruder motor current
G21 ; set units to millimeters
G90 ; use absolute coordinates
M83 ; use relative distances for extrusion
M900 K0.04 ; Filament gcode LA 1.5
M900 K20 ; Filament gcode LA 1.0
M107
;LAYER_CHANGE
;Z:0.2
;HEIGHT:0.2
;BEFORE_LAYER_CHANGE
G92 E0.0
;0.2


G1 E-.8 F2100
G1 Z.4 F720
;AFTER_LAYER_CHANGE
;0.2
G1 X111.139 Y91.083 F10800
G1 Z.2 F720
G1 E.8 F2100
M204 S800
;TYPE:Skirt/Brim
;WIDTH:0.42
G1 F1200
G1 X112.205 Y90.069 E.04613
G1 X113.5 Y89.746 E.04185
G1 X136.5 Y89.746 E.72115
G1 X137.917 Y90.139 E.04611
G1 X138.931 Y91.205 E.04613
G1 X139.254 Y92.5 E.04185
G1 X139.254 Y117.5 E.78386
G1 X138.861 Y118.917 E.04611
M73 P1 R15
M73 Q1 S15
G1 X137.795 Y119.931 E.04613
G1 X136.5 Y120.254 E.04185
G1 X113.5 Y120.254 E.72115
G1 X112.083 Y119.861 E.04611
M73 P1 R14
G1 X111.069 Y118.795 E.04613
G1 X110.746 Y117.5 E.04185
G1 X110.746 Y92.5 E.78386
G1 X111.123 Y91.14 E.04425
M204 S1000
G1 X111.497 Y91.252 F10800
M204 S800
G1 F1200
G1 X111.515 Y91.193 E.00193
G1 X112.56 Y90.317 E.04275
G1 X113.5 Y90.123 E.03009
G1 X136.5 Y90.123 E.72115
G1 X137.807 Y90.515 E.04278
G1 X138.683 Y91.56 E.04275
G1 X138.877 Y92.5 E.03009
G1 X138.877 Y117.5 E.78386
G1 X138.485 Y118.807 E.04278
M73 Q1 S14
G1 X137.44 Y119.683 E.04275
G1 X136.5 Y119.877 E.03009
G1 X113.5 Y119.877 E.72115
G1 X112.193 Y119.485 E.04278
G1 X111.317 Y118.44 E.04275
G1 X111.123 Y117.5 E.03009
G1 X111.123 Y92.5 E.78386
G1 X111.479 Y91.31 E.03895
M204 S1000
; printing object Körper1.stl id:0 copy 0
;WIPE_START
M73 P2 R14
M73 Q2 S14
G1 F8640
G1 X111.515 Y91.193 E-.02827
G1 X112.56 Y90.317 E-.31486
G1 X113.5 Y90.123 E-.22162
G1 X114.519 Y90.123 E-.23525
;WIPE_END
G1 Z.6 F720
G1 X135.718 Y102.517 F10800
G1 Z.2 F720
G1 E.8 F2100
M204 S800
;TYPE:Perimeter
;WIDTH:0.419999
G1 F1200
G1 X135.729 Y103.289 E.02421
;WIDTH:0.38869
G1 X135.751 Y103.981 E.01991
;WIDTH:0.343974
G1 X135.762 Y104.672 E.0173
;WIDTH:0.323185
G1 X135.761 Y105.384 E.01659
;WIDTH:0.348092
G1 X135.749 Y106.091 E.01794
;WIDTH:0.387958
G1 X135.729 Y106.603 E.0147
;WIDTH:0.427823
G1 X135.709 Y107.115 E.0164
G1 X135.713 Y107.877 E.02439
;WIDTH:0.419999
G1 X135.713 Y116.713 E.27705
G1 X114.287 Y116.713 E.6718
G1 X114.287 Y108.644 E.253
;WIDTH:0.42141
G1 X114.288 Y107.126 E.04777
G1 X114.271 Y106.686 E.01386
;WIDTH:0.388779
G1 X114.255 Y106.246 E.01266
;WIDTH:0.356148
G1 X114.241 Y105.627 E.01613
;WIDTH:0.328789
G1 X114.237 Y104.986 E.01524
;WIDTH:0.329609
G1 X114.242 Y104.344 E.0153
;WIDTH:0.359204
G1 X114.257 Y103.701 E.01691
;WIDTH:0.390335
G1 X114.272 Y103.287 E.01197
;WIDTH:0.421465
G1 X114.287 Y102.115 E.03689
;WIDTH:0.419999
G1 X114.287 Y93.287 E.2768
G1 X135.713 Y93.287 E.6718
G1 X135.713 Y98.387 E.15991
G1 X135.718 Y102.457 E.12761
M204 S1000
;WIPE_START
G1 F8640
G1 X135.729 Y103.289 E-.19213
G1 X135.751 Y103.981 E-.15987
G1 X135.762 Y104.672 E-.15957
G1 X135.761 Y105.384 E-.1644
G1 X135.752 Y105.921 E-.12403
;WIPE_END
G1 Z.6 F720
G1 X136.09 Y117.09 F10800
G1 Z.2 F720
G1 E.8 F2100
M204 S800
;TYPE:External perimeter
G1 F1200
G1 X113.91 Y117.09 E.69544
G1 X113.91 Y92.91 E.75815
G1 X136.09 Y92.91 E.69544
G1 X136.09 Y117.03 E.75626
M204 S1000
M73 P3 R14
M73 Q3 S14
G1 X135.705 Y116.981 F10800
;WIPE_START
G1 F8640
G1 X132.625 Y117.039 E-.8
;WIPE_END
G1 Z.6 F720
G1 X130.884 Y104.262 F10800
G1 Z.2 F720
G1 E.8 F2100
M204 S800
;TYPE:Perimeter
G1 F1200
G1 X131.109 Y103.886 E.01374
G1 X131.484 Y103.529 E.01623
G1 X131.901 Y103.323 E.01458
G1 X132.398 Y103.22 E.01591
G1 X132.92 Y103.266 E.01643
G1 X133.269 Y103.393 E.01164
G1 X133.583 Y103.595 E.01171
G1 X133.724 Y103.73 E.00612
G1 X133.715 Y103.073 E.0206
G1 X133.782 Y102.797 E.00891
G1 X133.964 Y102.596 E.0085
G1 X134.224 Y102.502 E.00867
G1 X134.71 Y102.454 E.01531
G1 X135.031 Y102.517 E.01026
G1 X135.32 Y102.906 E.01519
;WIDTH:0.418379
G1 X135.384 Y103.431 E.01651
;WIDTH:0.382276
G1 X135.448 Y103.956 E.01492
;WIDTH:0.346173
G1 X135.482 Y104.637 E.01719
;WIDTH:0.322785
G1 X135.482 Y105.341 E.01638
;WIDTH:0.344741
G1 X135.449 Y106.021 E.01709
;WIDTH:0.348092
G1 X135.446 Y106.068 E.0012
;WIDTH:0.387381
G1 X135.387 Y106.57 E.01448
;WIDTH:0.42667
G1 X135.328 Y107.072 E.01613
G1 X135.039 Y107.479 E.01593
;WIDTH:0.419999
G1 X134.71 Y107.547 E.01053
G1 X134.066 Y107.459 E.02038
G1 X133.866 Y107.321 E.00762
G1 X133.768 Y107.176 E.00549
G1 X133.714 Y106.928 E.00796
G1 X133.724 Y106.246 E.02139
G1 X133.48 Y106.476 E.01051
G1 X133.266 Y106.603 E.0078
G1 X132.69 Y106.778 E.01888
G1 X132.263 Y106.77 E.01339
G1 X131.814 Y106.645 E.01461
G1 X131.381 Y106.392 E.01572
G1 X131.053 Y106.048 E.0149
G1 X130.872 Y105.735 E.01134
G1 X130.757 Y105.392 E.01134
G1 X130.714 Y105.033 E.01134
G1 X130.744 Y104.673 E.01133
G1 X130.853 Y104.314 E.01176
M204 S1000
G1 X131.106 Y104.937 F10800
M204 S800
;TYPE:External perimeter
G1 F1200
G1 X131.109 Y104.768 E.0053
G1 X131.184 Y104.492 E.00897
G1 X131.407 Y104.116 E.01371
G1 X131.714 Y103.83 E.01316
G1 X131.979 Y103.692 E.00937
G1 X132.485 Y103.593 E.01617
G1 X132.804 Y103.624 E.01005
G1 X133.077 Y103.718 E.00905
G1 X133.323 Y103.869 E.00905
G1 X133.528 Y104.07 E.009
;WIDTH:0.425924
G1 X133.686 Y104.313 E.00923
;WIDTH:0.428401
G1 X133.776 Y104.585 E.00918
G1 X133.803 Y105.084 E.01602
;WIDTH:0.430153
G1 X133.727 Y105.599 E.01676
G1 X133.576 Y105.867 E.0099
;WIDTH:0.419999
G1 X133.151 Y106.244 E.01781
G1 X132.646 Y106.403 E.0166
G1 X132.338 Y106.401 E.00966
G1 X131.962 Y106.298 E.01222
G1 X131.567 Y106.058 E.01449
G1 X131.373 Y105.848 E.00896
G1 X131.226 Y105.604 E.00893
G1 X131.102 Y105.149 E.01479
G1 X131.105 Y104.997 E.00477
M204 S1000
G1 X130.955 Y104.859 F10800
;WIPE_START
G1 F8640
G1 X131.109 Y104.768 E-.05288
G1 X131.184 Y104.492 E-.06604
G1 X131.407 Y104.116 E-.10094
G1 X131.714 Y103.83 E-.09688
G1 X131.979 Y103.692 E-.06899
G1 X132.485 Y103.593 E-.11905
G1 X132.804 Y103.624 E-.074
G1 X133.077 Y103.718 E-.06667
G1 X133.323 Y103.869 E-.06665
G1 X133.528 Y104.07 E-.06629
G1 X133.579 Y104.148 E-.02161
;WIPE_END
G1 Z.6 F720
G1 X134.747 Y102.829 F10800
G1 Z.2 F720
G1 E.8 F2100
M204 S800
G1 F1200
G1 X134.854 Y102.85 E.00342
G1 X134.951 Y102.98 E.00509
G1 X135.111 Y104.001 E.0324
G1 X135.154 Y104.659 E.02068
G1 X135.154 Y105.341 E.02138
G1 X135.109 Y106.015 E.02118
G1 X134.952 Y107.016 E.03177
G1 X134.857 Y107.149 E.00512
G1 X134.747 Y107.171 E.00352
G1 X134.209 Y107.11 E.01698
G1 X134.109 Y107.016 E.0043
G1 X134.101 Y106.237 E.02443
;WIDTH:0.430153
G1 X134.166 Y105.121 E.03599
;WIDTH:0.428401
G1 X134.16 Y104.553 E.01821
G1 X134.11 Y103.869 E.02198
;WIDTH:0.419999
G1 X134.093 Y103.039 E.02603
G1 X134.175 Y102.908 E.00485
G1 X134.688 Y102.837 E.01624
M204 S1000
G1 X134.804 Y102.736 F10800
;WIPE_START
G1 F8640
G1 X134.854 Y102.85 E-.03845
G1 X134.951 Y102.98 E-.03745
G1 X135.111 Y104.001 E-.23863
G1 X135.154 Y104.659 E-.15226
G1 X135.154 Y105.341 E-.15748
G1 X135.109 Y106.015 E-.15597
G1 X135.096 Y106.1 E-.01976
;WIPE_END
G1 Z.6 F720
G1 X121.753 Y105.42 F10800
G1 Z.2 F720
G1 E.8 F2100
M204 S800
;TYPE:Perimeter
G1 F1200
G1 X121.736 Y104.645 E.02431
G1 X121.939 Y103.812 E.02688
G1 X122.156 Y103.351 E.01598
G1 X122.598 Y102.769 E.02291
G1 X123.1 Y102.343 E.02064
G1 X123.423 Y102.12 E.01231
G1 X124.079 Y101.848 E.02227
G1 X124.843 Y101.723 E.02427
G1 X125.379 Y101.736 E.01681
G1 X125.913 Y101.865 E.01722
G1 X126.324 Y101.995 E.01352
G1 X126.94 Y102.351 E.02231
G1 X127.387 Y102.771 E.01923
G1 X127.685 Y103.121 E.01441
G1 X128.005 Y103.676 E.02009
G1 X128.231 Y104.444 E.0251
G1 X128.264 Y104.971 E.01656
G1 X128.245 Y105.502 E.01666
G1 X128.061 Y106.188 E.02227
G1 X127.767 Y106.736 E.0195
G1 X127.559 Y107.057 E.01199
G1 X127.057 Y107.559 E.02226
G1 X126.324 Y108.005 E.0269
G1 X125.502 Y108.245 E.02685
G1 X124.645 Y108.264 E.02688
G1 X124.037 Y108.121 E.01958
G1 X123.676 Y108.005 E.01189
G1 X123.06 Y107.649 E.02231
G1 X122.669 Y107.286 E.01673
G1 X122.345 Y106.93 E.01509
G1 X121.995 Y106.324 E.02194
G1 X121.939 Y106.188 E.00461
G1 X121.755 Y105.48 E.02294
M204 S1000
G1 X122.119 Y105.404 F10800
M204 S800
;TYPE:External perimeter
G1 F1200
G1 X122.113 Y104.645 E.0238
G1 X122.303 Y103.91 E.0238
G1 X122.493 Y103.524 E.01349
G1 X122.926 Y102.961 E.02227
G1 X123.329 Y102.643 E.0161
G1 X123.567 Y102.469 E.00924
G1 X124.223 Y102.197 E.02227
G1 X124.895 Y102.096 E.02131
G1 X125.404 Y102.119 E.01598
G1 X126.093 Y102.304 E.02237
G1 X126.751 Y102.677 E.02372
G1 X127.121 Y103.038 E.01621
G1 X127.358 Y103.31 E.01131
G1 X127.678 Y103.864 E.02006
G1 X127.866 Y104.542 E.02206
G1 X127.881 Y105.404 E.02703
G1 X127.697 Y106.09 E.02227
G1 X127.293 Y106.79 E.02534
G1 X126.79 Y107.293 E.0223
G1 X126.136 Y107.678 E.02379
G1 X125.404 Y107.881 E.02382
G1 X124.645 Y107.887 E.0238
G1 X124.135 Y107.757 E.0165
G1 X123.864 Y107.678 E.00885
G1 X123.249 Y107.323 E.02226
G1 X122.74 Y106.823 E.02237
G1 X122.441 Y106.342 E.01776
G1 X122.303 Y106.09 E.00901
G1 X122.135 Y105.462 E.02038
M204 S1000
G1 X121.752 Y105.245 F10800
;WIPE_START
G1 F8640
G1 X122.113 Y104.645 E-.18872
G1 X122.303 Y103.91 E-.17529
G1 X122.493 Y103.524 E-.09934
G1 X122.926 Y102.961 E-.164
G1 X123.329 Y102.643 E-.11854
G1 X123.518 Y102.505 E-.05411
;WIPE_END
G1 Z.6 F720
G1 X121.596 Y109.751 F10800
G1 Z.2 F720
G1 E.8 F2100
M204 S800
;TYPE:Perimeter
G1 F1200
G1 X121.665 Y109.758 E.00217
G1 X122.007 Y109.877 E.01135
G1 X122.317 Y110.063 E.01134
G1 X122.583 Y110.307 E.01132
G1 X122.795 Y110.599 E.01131
G1 X122.944 Y110.929 E.01135
G1 X123.023 Y111.281 E.01131
G1 X123.03 Y111.643 E.01135
G1 X122.964 Y111.998 E.01132
G1 X122.828 Y112.333 E.01134
G1 X122.627 Y112.633 E.01132
G1 X122.369 Y112.887 E.01135
G1 X122.066 Y113.084 E.01133
G1 X121.73 Y113.216 E.01132
G1 X121.374 Y113.277 E.01132
G1 X121.012 Y113.266 E.01136
G1 X120.661 Y113.182 E.01132
G1 X120.334 Y113.028 E.01133
G1 X120.044 Y112.813 E.01132
G1 X119.803 Y112.543 E.01135
G1 X119.622 Y112.23 E.01134
G1 X119.509 Y111.899 E.01097
G1 X119.464 Y111.528 E.01172
G1 X119.494 Y111.168 E.01133
G1 X119.596 Y110.821 E.01134
G1 X119.765 Y110.502 E.01132
G1 X119.995 Y110.224 E.01131
G1 X120.277 Y109.997 E.01135
G1 X120.65 Y109.818 E.01297
G1 X121.172 Y109.712 E.0167
G1 X121.536 Y109.746 E.01146
M204 S1000
G1 X121.58 Y110.127 F10800
M204 S800
;TYPE:External perimeter
G1 F1200
G1 X121.824 Y110.207 E.00805
G1 X122.071 Y110.349 E.00893
G1 X122.285 Y110.537 E.00893
G1 X122.457 Y110.765 E.00895
G1 X122.579 Y111.023 E.00895
G1 X122.647 Y111.301 E.00897
G1 X122.657 Y111.586 E.00894
G1 X122.61 Y111.867 E.00893
G1 X122.508 Y112.133 E.00893
G1 X122.353 Y112.373 E.00896
G1 X122.154 Y112.578 E.00896
G1 X121.918 Y112.737 E.00892
G1 X121.654 Y112.846 E.00896
G1 X121.374 Y112.9 E.00894
G1 X121.088 Y112.896 E.00897
G1 X120.81 Y112.835 E.00892
G1 X120.549 Y112.719 E.00896
G1 X120.317 Y112.553 E.00894
G1 X120.123 Y112.343 E.00896
G1 X119.976 Y112.099 E.00893
G1 X119.881 Y111.834 E.00883
G1 X119.841 Y111.548 E.00905
G1 X119.859 Y111.263 E.00895
G1 X119.934 Y110.988 E.00894
G1 X120.063 Y110.733 E.00896
G1 X120.241 Y110.51 E.00895
G1 X120.46 Y110.327 E.00895
G1 X120.729 Y110.187 E.00951
G1 X121.23 Y110.087 E.01602
G1 X121.521 Y110.115 E.00917
M204 S1000
G1 X121.747 Y109.932 F10800
;WIPE_START
G1 F8640
G1 X121.824 Y110.207 E-.07312
G1 X122.071 Y110.349 E-.06579
G1 X122.285 Y110.537 E-.06577
G1 X122.457 Y110.765 E-.06595
G1 X122.579 Y111.023 E-.0659
G1 X122.647 Y111.301 E-.06608
G1 X122.657 Y111.586 E-.06585
G1 X122.61 Y111.867 E-.06579
G1 X122.508 Y112.133 E-.06578
G1 X122.353 Y112.373 E-.06597
G1 X122.154 Y112.578 E-.06597
G1 X121.918 Y112.737 E-.06571
G1 X121.909 Y112.741 E-.00232
;WIPE_END
G1 Z.6 F720
G1 X115.856 Y102.492 F10800
G1 Z.2 F720
G1 E.8 F2100
M204 S800
;TYPE:Perimeter
G1 F1200
G1 X116.026 Y102.548 E.00561
G1 X116.212 Y102.737 E.00831
G1 X116.291 Y102.983 E.0081
G1 X116.293 Y106.973 E.1251
M73 Q4 S14
G1 X116.229 Y107.234 E.00843
G1 X116.047 Y107.439 E.0086
G1 X115.773 Y107.536 E.00911
G1 X115.27 Y107.577 E.01582
G1 X114.943 Y107.505 E.0105
;WIDTH:0.42141
G1 X114.664 Y107.098 E.01553
G1 X114.617 Y106.681 E.01321
;WIDTH:0.390008
M73 P4 R14
G1 X114.57 Y106.264 E.01211
;WIDTH:0.358606
G1 X114.529 Y105.654 E.01605
;WIDTH:0.329982
G1 X114.513 Y105.021 E.01511
;WIDTH:0.328411
G1 X114.527 Y104.389 E.01501
;WIDTH:0.356689
G1 X114.569 Y103.757 E.01653
;WIDTH:0.389077
G1 X114.616 Y103.329 E.01239
;WIDTH:0.421465
G1 X114.664 Y102.902 E.01352
G1 X114.943 Y102.496 E.01551
;WIDTH:0.419999
G1 X115.27 Y102.423 E.01051
G1 X115.799 Y102.473 E.01666
M204 S1000
G1 X115.742 Y102.84 F10800
M204 S800
;TYPE:External perimeter
G1 F1200
G1 X115.884 Y102.924 E.00517
G1 X115.916 Y103.069 E.00466
G1 X115.916 Y106.973 E.12241
G1 X115.849 Y107.117 E.00498
G1 X115.742 Y107.161 E.00363
G1 X115.24 Y107.202 E.01579
G1 X115.131 Y107.177 E.00351
G1 X115.038 Y107.042 E.00514
G1 X114.913 Y106.212 E.02632
G1 X114.859 Y105.624 E.01851
G1 X114.84 Y105.011 E.01923
G1 X114.858 Y104.398 E.01923
G1 X114.913 Y103.788 E.0192
G1 X115.038 Y102.959 E.02629
G1 X115.131 Y102.823 E.00517
G1 X115.24 Y102.799 E.0035
G1 X115.683 Y102.835 E.01394
M204 S1000
G1 X115.87 Y102.736 F10800
;WIPE_START
G1 F8640
G1 X115.884 Y102.924 E-.05076
G1 X115.916 Y103.069 E-.03429
G1 X115.916 Y106.165 E-.71495
;WIPE_END
G1 Z.6 F720
G1 X122.849 Y99.291 F10800
G1 Z.2 F720
G1 E.8 F2100
M204 S800
;TYPE:Perimeter
G1 F1200
G1 X122.591 Y99.681 E.01466
G1 X122.252 Y99.979 E.01415
G1 X121.839 Y100.191 E.01456
G1 X121.374 Y100.287 E.01489
G1 X121.012 Y100.275 E.01136
G1 X120.661 Y100.191 E.01132
G1 X120.334 Y100.038 E.01132
G1 X119.95 Y99.723 E.01557
G1 X119.672 Y99.342 E.01479
G1 X119.507 Y98.897 E.01488
G1 X119.464 Y98.538 E.01134
G1 X119.494 Y98.178 E.01133
G1 X119.596 Y97.831 E.01134
G1 X119.705 Y97.609 E.00775
G1 X119.995 Y97.233 E.01489
G1 X120.277 Y97.007 E.01133
G1 X120.65 Y96.828 E.01297
G1 X121.219 Y96.72 E.01816
G1 X121.665 Y96.767 E.01406
G1 X122.007 Y96.887 E.01136
G1 X122.317 Y97.072 E.01132
G1 X122.583 Y97.316 E.01132
G1 X122.795 Y97.609 E.01134
G1 X122.944 Y97.938 E.01132
G1 X123.023 Y98.291 E.01134
G1 X123.03 Y98.652 E.01132
G1 X122.964 Y99.008 E.01135
G1 X122.871 Y99.235 E.00769
M204 S1000
G1 X122.444 Y99.236 F10800
M204 S800
;TYPE:External perimeter
G1 F1200
G1 X122.317 Y99.421 E.00704
G1 X121.951 Y99.729 E.015
G1 X121.566 Y99.874 E.0129
G1 X121.126 Y99.91 E.01384
G1 X120.81 Y99.845 E.01012
G1 X120.549 Y99.729 E.00896
G1 X120.223 Y99.463 E.01319
G1 X119.976 Y99.109 E.01353
G1 X119.88 Y98.84 E.00896
G1 X119.841 Y98.557 E.00896
G1 X119.859 Y98.272 E.00895
G1 X119.934 Y97.997 E.00894
G1 X120.043 Y97.775 E.00775
G1 X120.241 Y97.519 E.01015
G1 X120.46 Y97.336 E.00895
G1 X120.729 Y97.197 E.00949
G1 X121.219 Y97.097 E.01568
G1 X121.552 Y97.127 E.01048
G1 X121.824 Y97.216 E.00897
G1 X122.071 Y97.358 E.00893
G1 X122.285 Y97.547 E.00895
G1 X122.457 Y97.775 E.00895
G1 X122.579 Y98.033 E.00895
G1 X122.647 Y98.31 E.00894
G1 X122.628 Y98.789 E.01503
G1 X122.508 Y99.143 E.01172
